!!!!SEGMENT: pl-cz--iii-111--005_dankowski-adalbert--vesperae-d-lauda-jerusalem.krn
!!!cenid: 18xx:794
!!!COM: Dankowski, Adalbert
!!!COM-rismid: pe30000793
!!!CDT: ~1760-~1836
!!!CNT: Polish
!!!OPR: Vesperae D
!!!OTL: Lauda Jerusalem
!!!OMV: 005
!!!PDT:
!!!AGN: Sacred; Vespers
!!!SMS-siglum: PL-CZ
!!!SMS-shelfmark: III-111
!!!SMS-shelfwork: 001-005 M
!!!SMS-variant:
!!!SMS-altvar:
!!!NIFC-rismid: 300033580
!!!URL-scan: http://repozytorium.nifc.pl/skany/pl-cz-nut--iii-111
!!!ONB-nifc: UWAGA: części Vesperae: Dixit Dominus, Laudate pueri, Laetatus sum, Nisi Dominus, Lauda Jerusalem, Magnificat, Et misericordia, Gloria patri
!!!AIN: 1 alto 1 bass 2 empty 1 organ 1 tenor 2 violn 1 vox
!!!key: D
**kern	**fba	**dynam	**kern	**dynam	**kern	**dynam	**kern	**text	**kern	**text	**kern	**text	**kern	**text	**kern	**kern
*part9	*part9	*part9	*part8	*part8	*part7	*part7	*part6	*part6	*part5	*part5	*part4	*part4	*part3	*part3	*part2	*part1
*staff9	*	*	*staff8	*	*staff7	*	*staff6	*staff6	*staff5	*staff5	*staff4	*staff4	*staff3	*staff3	*staff2	*staff1
*Iorgan	*	*	*Ivioln	*	*Ivioln	*	*Ibass	*	*Itenor	*	*Ialto	*	*Ivox	*	*Iempty	*Iempty
*I"Organo	*	*	*I"Violino Secondo	*	*I"Violino Primo	*	*I"Basso	*	*I"Tenore	*	*I"Alto	*	*I"Canto	*	*I"Cornu Secondo Ex D:	*I"Cornu Primo Ex D:
*I'Org.	*	*	*I'Vn II	*	*I'Vn I	*	*I'B.	*	*I'T.	*	*I'A.	*	*I'C.	*	*I'C. II in D	*I'C. I in D
*clefF4	*	*	*clefG2	*	*clefG2	*	*clefF4	*	*clefC4	*	*clefC3	*	*clefC1	*	*clefG2	*clefG2
*	*	*	*	*	*	*	*	*	*	*	*	*	*	*	*ITrd-1c-2	*ITrd-1c-2
*ICklav	*	*	*ICstr	*	*ICstr	*	*ICvox	*	*ICvox	*	*ICvox	*	*ICvox	*	*ICbras	*ICbras
*k[f#c#]	*	*	*k[f#c#]	*	*k[f#c#]	*	*k[f#c#]	*	*k[f#c#]	*	*k[f#c#]	*	*k[f#c#]	*	*k[f#c#]	*k[f#c#]
*D:	*	*	*D:	*	*D:	*	*D:	*	*D:	*	*D:	*	*D:	*	*D:	*D:
*M2/4	*	*	*M2/4	*	*M2/4	*	*M2/4	*	*M2/4	*	*M2/4	*	*M2/4	*	*M2/4	*M2/4
=1	=1	=1	=1	=1	=1	=1	=1	=1	=1	=1	=1	=1	=1	=1	=1	=1
!LO:TX:a:t=tutti	!	!	!	!	!	!	!	!	!	!	!	!	!	!	!	!
!LO:TX:rj:a:t=allo	!	!	!LO:TX:a:t=allo	!LO:DY:a	!LO:TX:a:t=allo	!LO:DY:a	!LO:TX:a:t=allo&colon;	!	!LO:TX:a:t=allo&colon;	!	!LO:TX:a:t=allo&colon;	!	!LO:TX:a:t=allo&colon;	!	!LO:TX:a:t=allo	!LO:TX:a:t=allo
8D\L	.	.	8.dd\L	f	8.ff#\L	f	4D\	Lau-	4A\	Lau-	8.f#\L	Lau-	8.dd\L	Lau-	4f#/	4dd\
8D\	.	.	.	.	.	.	.	.	.	.	.	.	.	.	.	.
.	.	.	16ee\Jk	.	16gg\Jk	.	.	.	.	.	16g\Jk	.	16ee\Jk	.	.	.
8D\	.	.	16ff#\LL	.	16aa\LL	.	8D\	-da	8A\	-da	8a\	-da	8ff#\	-da	4r	4r
.	.	.	16dd\	.	16ff#\	.	.	.	.	.	.	.	.	.	.	.
8D\J	.	.	16gg\	.	16bb\	.	8D\	Je-	8A\	Je-	8a\	Je-	8ff#\	Je-	.	.
.	.	.	16ff#\JJ	.	16aa\JJ	.	.	.	.	.	.	.	.	.	.	.
=2	=2	=2	=2	=2	=2	=2	=2	=2	=2	=2	=2	=2	=2	=2	=2	=2
*2\right	*	*	*	*	*	*	*	*	*	*	*	*	*	*	*	*
*tremolo	*	*	*	*	*	*	*	*	*	*	*	*	*	*	*	*
8D\L	.	.	8.ff#\L	.	8.aa\L	.	8.D\	-ru-	8.A\	-ru-	8.a\	-ru-	8.ff#\L	-ru-	8r	8r
8D\	.	.	.	.	.	.	.	.	.	.	.	.	.	.	8dd\L	8ff#\L
.	.	.	16ee\Jk	.	16gg\Jk	.	16D\	-ſa-	16A\	-ſa-	16g\	-ſa-	16ee\Jk	-ſa-	.	.
8D\	.	.	4dd\	.	4ff#\	.	4D\	-lem	4A\	-lem	4f#\	-lem	4cc#\	-lem	8dd\	8ff#\
8D\J	.	.	.	.	.	.	.	.	.	.	.	.	.	.	8dd\J	8ff#\J
*Xtremolo	*	*	*	*	*	*	*	*	*	*	*	*	*	*	*	*
=3	=3	=3	=3	=3	=3	=3	=3	=3	=3	=3	=3	=3	=3	=3	=3	=3
!LO:TX:t=P:problem= mixed beam	!	!	!	!	!	!	!	!	!	!	!	!	!	!	!	!
8G\L	6	.	8.gg\L	.	8.bb\L	.	(4G\	Do-	(4B\	Do-	(4g\	Do-	4ee\	Do-	4ee\	4gg\
8G\	_	.	.	.	.	.	.	.	.	.	.	.	.	.	.	.
.	.	.	16ee\Jk	.	16gg\Jk	.	.	.	.	.	.	.	.	.	.	.
8A\	4	.	16ee\LL	.	16gg\LL	.	8A\)	.	8A\)	.	8f#\)	.	8dd\	.	8dd\L	8ff#\L
.	.	.	16dd\	.	16ff#\	.	.	.	.	.	.	.	.	.	.	.
8AA/J	3	.	16dd\	.	16ff#\	.	8AA/	-mi-	8A\	-mi-	8e\	-mi-	8cc#\	-mi-	8a\J	8ee\J
.	.	.	16cc#\JJ	.	16ee\JJ	.	.	.	.	.	.	.	.	.	.	.
=4	=4	=4	=4	=4	=4	=4	=4	=4	=4	=4	=4	=4	=4	=4	=4	=4!|:
4D\	.	.	8dd\L	.	8ff#\L	.	4D\	-num	4A\	-num	4f#\	-num	4dd\	-num	4f#/	4dd\
.	.	.	(32dd\LL	.	(32ff#\LL	.	.	.	.	.	.	.	.	.	.	.
.	.	.	32cc#\	.	32ee\	.	.	.	.	.	.	.	.	.	.	.
.	.	.	32dd\)	.	32ff#\	.	.	.	.	.	.	.	.	.	.	.
.	.	.	32ee\JJJ	.	32gg\JJJ)	.	.	.	.	.	.	.	.	.	.	.
4r	.	.	16ff#\LL	.	16aa\LL	.	4r	.	4r	.	4r	.	4r	.	4r	4r
.	.	.	16gg\	.	16bb\	.	.	.	.	.	.	.	.	.	.	.
.	.	.	16ff#\	.	16aa\	.	.	.	.	.	.	.	.	.	.	.
.	.	.	16ee\JJ	.	16gg\JJ	.	.	.	.	.	.	.	.	.	.	.
!	!	!	!LO:LB:g=original	!	!	!	!	!	!	!	!LO:PB:g=original	!	!LO:LB:g=original	!	!	!
=5	=5	=5	=5	=5	=5	=5	=5	=5	=5	=5	=5	=5	=5	=5	=5	=5:|!
8D\L	.	.	8.dd\L	.	8.ff#\L	.	4D\	Lau-	4.A\	Lau-	8.f#\L	Lau-	8.dd\L	Lau-	4f#/	4dd\yy
8D\	.	.	.	.	.	.	.	.	.	.	.	.	.	.	.	.
.	.	.	16ee\Jk	.	16gg\Jk	.	.	.	.	.	16g\Jk	.	16ee\Jk	.	.	.
8D\	.	.	16ff#\LL	.	16aa\LL	.	4D\	-da-	.	.	8a\	.	8ff#\	.	4r	4ryy
.	.	.	16dd\	.	16ff#\	.	.	.	.	.	.	.	.	.	.	.
8D\J	.	.	16gg\	.	16bb\	.	.	.	8A\	-da	8a\	-da	8ff#\	-da	.	.
.	.	.	16ff#\JJ	.	16aa\JJ	.	.	.	.	.	.	.	.	.	.	.
!	!	!	!	!	!LO:LB:g=original	!	!LO:LB:g=original	!	!LO:LB:g=original	!	!	!	!	!	!	!
=6	=6	=6	=6	=6	=6	=6	=6	=6	=6	=6	=6	=6	=6	=6	=6	=6
*tremolo	*	*	*	*	*	*	*	*	*	*	*	*	*	*	*	*
8D\L	.	.	8.ff#\L	.	8.aa\L	.	4D\	-De-	4A\	De-	8.a\L	De-	8.ff#\L	De-	8r	8r
8D\	.	.	.	.	.	.	.	.	.	.	.	.	.	.	8dd\L	8ff#\L
.	.	.	16ee\Jk	.	16gg\Jk	.	.	.	.	.	16g\Jk	.	16ee\Jk	.	.	.
.	.	.	8qqee/	.	.	.	.	.	.	.	.	.	.	.	.	.
8D\	.	.	4dd\	.	4ff#\	.	4D\	-um	4A\	-um	4f#\	-um	4dd\	-um	8dd\	8ff#\
8D\J	.	.	.	.	.	.	.	.	.	.	.	.	.	.	8dd\J	8ff#\J
*Xtremolo	*	*	*	*	*	*	*	*	*	*	*	*	*	*	*	*
=7	=7	=7	=7	=7	=7	=7	=7	=7	=7	=7	=7	=7	=7	=7	=7	=7
8G\L	6	.	8.gg\L	.	8.bb\L	.	4.G\	tu-	4B\	tu-	4.g\	tu-	4.ee\	tu-	4ee\	4gg\
8G\	_	.	.	.	.	.	.	.	.	.	.	.	.	.	.	.
.	.	.	16ff#\Jk	.	16aa\Jk	.	.	.	.	.	.	.	.	.	.	.
8G\	.	.	16ff#\LL	.	16aa\LL	.	.	.	4B\	-um	.	.	.	.	8ee\L	8gg\L
.	.	.	16ee\	.	16gg\	.	.	.	.	.	.	.	.	.	.	.
8G#X\J	5	.	16ee\	.	16gg\	.	8G#X\	-um	.	.	8f#\	-um	8dd\	-um	8dd\J	8ff#\J
.	.	.	16dd\JJ	.	16ff#\JJ	.	.	.	.	.	.	.	.	.	.	.
!LO:LB:g=original	!	!	!	!	!	!	!	!	!	!	!	!	!	!	!	!
=8	=8	=8	=8	=8	=8	=8	=8	=8	=8	=8	=8	=8	=8	=8	=8	=8
!LO:TX:t=P:problem= mixed beam	!	!	!	!	!	!	!	!	!	!	!	!	!	!	!	!
8A\L	4	.	8.dd\L	.	8.ff#\L	.	4A\	Si-	4A\	Si-	4f#\	Si-	4dd\	Si-	4dd\	4ff#\
8A\	.	.	.	.	.	.	.	.	.	.	.	.	.	.	.	.
.	.	.	32cc#\LL	.	32ee\LL	.	.	.	.	.	.	.	.	.	.	.
.	.	.	32dd\JJJ	.	32ff#\JJJ	.	.	.	.	.	.	.	.	.	.	.
8AA/J	3	.	8cc#\L	.	16ee\LL	.	8AA/	-on	8A\	-on	8e\	-on	8cc#\	-on	8a/	8ee\
.	.	.	.	.	16a\	.	.	.	.	.	.	.	.	.	.	.
8r	.	.	8a\J	.	16cc#\	.	8r	.	8r	.	8r	.	8r	.	8r	8r
.	.	.	.	.	16ee\JJ	.	.	.	.	.	.	.	.	.	.	.
!	!	!	!	!	!	!	!	!	!	!	!	!	!	!	!LO:LB:g=original	!LO:LB:g=original
=9	=9	=9	=9	=9	=9	=9	=9	=9	=9	=9	=9	=9	=9	=9	=9	=9
*	*	*	*^	*	*	*	*	*	*	*	*	*	*	*	*	*
*	*	*	*	*	*	*	*	*	*	*	*	*	*	*	*	*	*2\right
8C#/L	6 5	.	8a/L	8e\L	.	16aa\LL	.	4C#/	quo-	4A\	quo-	4g\	Quo-	4ee\	Quo-	2a/	2ee\
.	.	.	.	.	.	16gg\	.	.	.	.	.	.	.	.	.	.	.
8C#/	.	.	8a/	8e\	.	16aa\	.	.	.	.	.	.	.	.	.	.	.
.	.	.	.	.	.	16bb\JJ	.	.	.	.	.	.	.	.	.	.	.
8C#/	3	.	8a/	8e\	.	16aa\LL	.	8C#/	-ni-	8A\	-ni-	8g\	-ni-	8ee\	-ni-	.	.
.	.	.	.	.	.	16gg\	.	.	.	.	.	.	.	.	.	.	.
8C#/J	.	.	8a/J	8e\J	.	16ff#\	.	8C#/	-am	8A\	-am	8g\	-am	8ee\	-am	.	.
.	.	.	.	.	.	16ee\JJ	.	.	.	.	.	.	.	.	.	.	.
!	!	!	!	!	!	!	!	!	!	!	!	!LO:LB:g=original	!	!	!	!	!
=10	=10	=10	=10	=10	=10	=10	=10	=10	=10	=10	=10	=10	=10	=10	=10	=10	=10
*	*	*	*2\right	*	*	*	*	*	*	*	*	*	*	*	*	*2\right	*
*tremolo	*	*	*tremolo	*tremolo	*	*	*	*	*	*	*	*	*	*	*	*	*
8D\L	.	.	8a/L	8f#\L	.	8dd\L	.	4D/	Con-	4A\	Con-	4f#\	Con-	4dd\	Con-	2dd\	2ff#\
8D\	.	.	8a/	8f#\	.	16dd\L	.	.	.	.	.	.	.	.	.	.	.
.	.	.	.	.	.	16cc#\JJ	.	.	.	.	.	.	.	.	.	.	.
8D\	.	.	8a/	8f#\	.	16dd\LL	.	4D/	-for-	4A\	-for-	4f#\	-for-	4dd\	-for-	.	.
.	.	.	.	.	.	16ee\	.	.	.	.	.	.	.	.	.	.	.
8D\J	.	.	8a/J	8f#\J	.	16ff#\	.	.	.	.	.	.	.	.	.	.	.
.	.	.	.	.	.	16gg\JJ	.	.	.	.	.	.	.	.	.	.	.
*	*	*	*Xtremolo	*Xtremolo	*	*	*	*	*	*	*	*	*	*	*	*	*
!	!	!	!LO:LB:g=original	!	!	!LO:LB:g=original	!	!	!	!	!	!	!	!LO:LB:g=original	!	!	!
=11	=11	=11	=11	=11	=11	=11	=11	=11	=11	=11	=11	=11	=11	=11	=11	=11	=11
8C#/L	6 5	.	8a/L	8e\L	.	16aa\LL	.	4C#/	-ta-	4A\	-ta-	4g\	-ta-	4ee\	-ta-	2a/	2ee\
.	.	.	.	.	.	16gg\	.	.	.	.	.	.	.	.	.	.	.
8C#/	.	.	8a/	8e\	.	16aa\	.	.	.	.	.	.	.	.	.	.	.
.	.	.	.	.	.	16bb\JJ	.	.	.	.	.	.	.	.	.	.	.
8C#/	.	.	8a/	8e\	.	16aa\LL	.	4C#/	-vit	4A\	-vit	4g\	-vit	4ee\	-vit	.	.
.	.	.	.	.	.	16gg\	.	.	.	.	.	.	.	.	.	.	.
8C#/J	.	.	8a/J	8e\J	.	16ff#\	.	.	.	.	.	.	.	.	.	.	.
.	.	.	.	.	.	16ee\JJ	.	.	.	.	.	.	.	.	.	.	.
!	!	!	!	!	!	!	!	!LO:LB:g=original	!	!LO:LB:g=original	!	!	!	!	!	!	!
=12	=12	=12	=12	=12	=12	=12	=12	=12	=12	=12	=12	=12	=12	=12	=12	=12	=12
*	*	*	*tremolo	*tremolo	*	*	*	*	*	*	*	*	*	*	*	*	*
8D\L	.	.	8a/L	8f#\L	.	8dd\L	.	4D\	Se-	4A\	Se-	4f#\	Se-	4dd\	Se-	2dd\	2ff#\
8D\	.	.	8a/	8f#\	.	16dd\L	.	.	.	.	.	.	.	.	.	.	.
.	.	.	.	.	.	16cc#\JJ	.	.	.	.	.	.	.	.	.	.	.
8D\	.	.	8a/	8f#\	.	16dd\LL	.	8D\	-raz	8A\	-ras	8f#\	-ras	8dd\	-ras	.	.
.	.	.	.	.	.	16ee\	.	.	.	.	.	.	.	.	.	.	.
8D\J	.	.	8a/J	8f#\J	.	16ff#\	.	8D\	por-	8A\	por-	8f#\	por-	8dd\	por-	.	.
.	.	.	.	.	.	16gg\JJ	.	.	.	.	.	.	.	.	.	.	.
*Xtremolo	*	*	*Xtremolo	*Xtremolo	*	*	*	*	*	*	*	*	*	*	*	*	*
=13	=13	=13	=13	=13	=13	=13	=13	=13	=13	=13	=13	=13	=13	=13	=13	=13	=13
8C#/L	6 5	.	8a/L	8e\L	.	16gg#X\LL	.	4C#/	-ta-	4A\	-ta-	4g\	-ta-	4ee\	-ta-	4ee\	4gg\
.	.	.	.	.	.	16aa\	.	.	.	.	.	.	.	.	.	.	.
8C#/	.	.	8a/	8e\	.	16ee\	.	.	.	.	.	.	.	.	.	.	.
.	.	.	.	.	.	16ggn\JJ	.	.	.	.	.	.	.	.	.	.	.
8D/	.	.	8a/	8f#\	.	16gg\LL	.	8D\	-rum	8A\	-rum	8f#\	-rum	8dd\	-rum	4dd\	4ff#\
.	.	.	.	.	.	16ff#\	.	.	.	.	.	.	.	.	.	.	.
8D/J	.	.	8a/J	8f#\J	.	16ee\	.	8F#\	Su-	8A\	Su-	8f#\	Su-	8dd\	Su-	.	.
.	.	.	.	.	.	16dd\JJ	.	.	.	.	.	.	.	.	.	.	.
*	*	*	*v	*v	*	*	*	*	*	*	*	*	*	*	*	*	*
=14	=14	=14	=14	=14	=14	=14	=14	=14	=14	=14	=14	=14	=14	=14	=14	=14
!LO:TX:t=P:problem= mixed beam	!	!	!	!	!	!	!	!	!	!	!	!	!	!	!	!
8A\L	4	.	8f#/L	.	8dd\L	.	8A\	-a-	8A\	-a-	8f#\	-a-	8dd\	-a-	8dd\L	8ff#\L
8AA/	3	.	8e/J	.	8cc#\J	.	8AA/	-rum	8A\	-rum	8e\	-rum	8cc#\	-rum	8a\J	8ee\J
8c#\	6	.	4a/	.	[<4aa\	.	4c#\	be-	4e\	be-	4a\	be-	[<4aa\	be-	4r	4r
8c#\J	.	.	.	.	.	.	.	.	.	.	.	.	.	.	.	.
!	!	!	!	!	!	!	!	!	!	!	!LO:LB:g=original	!	!	!	!	!
=15	=15	=15	=15	=15	=15	=15	=15	=15	=15	=15	=15	=15	=15	=15	=15	=15
8d\L	6 5	.	4.b\	.	8aa\L]	.	4d\	.	4f#\	.	4b\	.	4aa\]	.	1r	1r
8d\	_ _	.	.	.	16bb\L	.	.	.	.	.	.	.	.	.	.	.
.	.	.	.	.	16aa\JJ	.	.	.	.	.	.	.	.	.	.	.
8e\	x	.	.	.	[<4gg\	.	4e\	-ne-	4e\	-ne-	4b\	-ne-	4gg\	-ne-	.	.
8e\J	.	.	16cc#\LL	.	.	.	.	.	.	.	.	.	.	.	.	.
.	.	.	16b\JJ	.	.	.	.	.	.	.	.	.	.	.	.	.
!LO:LB:g=original	!	!	!	!	!	!	!	!	!	!	!	!	!	!	!	!
=16	=16	=16	=16	=16	=16	=16	=16	=16	=16	=16	=16	=16	=16	=16	=16	=16
8c#\L	6 5	.	4.a/	.	8gg\L]	.	4c#\	-di-	4e\	-di-	4a\	-di-	4gg\	-di-	.	.
8c#\	.	.	.	.	16aa\L	.	.	.	.	.	.	.	.	.	.	.
.	.	.	.	.	16gg\JJ	.	.	.	.	.	.	.	.	.	.	.
8d\	.	.	.	.	[<4ff#\	.	4d\	-xit	4d\	-xit	4a\	-xit	4ff#\	-xit	.	.
8d\J	.	.	16b/LL	.	.	.	.	.	.	.	.	.	.	.	.	.
.	.	.	16a/JJ	.	.	.	.	.	.	.	.	.	.	.	.	.
!	!	!	!	!	!LO:LB:g=original	!	!	!	!	!	!	!	!LO:LB:g=original	!	!	!
=17	=17	=17	=17	=17	=17	=17	=17	=17	=17	=17	=17	=17	=17	=17	=17	=17
8B\L	6 5	.	4.g/	.	8ff#\L]	.	4B\	fi-	4d\	fi-	4g\	fi-	4ff#\	fi-	2r	2r
8B\	.	.	.	.	16gg\L	.	.	.	.	.	.	.	.	.	.	.
.	.	.	.	.	16ff#\JJ	.	.	.	.	.	.	.	.	.	.	.
8c#\	.	.	.	.	[<4ee\	.	8c#\	-li-	8c#\	-li-	8g\	-li-	8ee\	-li-	.	.
8c#\J	.	.	16a/LL	.	.	.	8c#\	-js	8c#\	-is	8g\	-is	8ee\	-is	.	.
.	.	.	16g/JJ	.	.	.	.	.	.	.	.	.	.	.	.	.
!	!	!	!	!	!	!	!LO:LB:g=original	!	!LO:LB:g=original	!	!	!	!	!	!	!
=18	=18	=18	=18	=18	=18	=18	=18	=18	=18	=18	=18	=18	=18	=18	=18	=18
!LO:SI:o:s:v=krzyżyk dopisany ołówkiem	!	!	!	!	!	!	!	!	!	!	!	!	!	!	!	!
8A\L	6 5	.	4.f#/	.	8ee\L]	.	4A\	tu-	4c#\	tu-	4f#\	tu-	4ee\	tu-	4r	4r
8A\	.	.	.	.	16ff#\L	.	.	.	.	.	.	.	.	.	.	.
.	.	.	.	.	16ee\JJ	.	.	.	.	.	.	.	.	.	.	.
8B\	.	.	.	.	[<4dd\	.	4B\	-is	4B\	-is	4f#\	-is	4dd\	-is	8r	8r
8B\J	.	.	16g/LL	.	.	.	.	.	.	.	.	.	.	.	8dd\	8ff#\
.	.	.	16f#/JJ	.	.	.	.	.	.	.	.	.	.	.	.	.
!	!	!	!LO:LB:g=original	!	!	!	!	!	!	!	!	!	!	!	!	!
=19	=19	=19	=19	=19	=19	=19	=19	=19	=19	=19	=19	=19	=19	=19	=19	=19
*	*	*	*	*	*	*	*	*	*	*	*2\right	*	*	*	*	*
8G\L	6 5	.	4.e/	.	8dd\L]	.	4G\	in-	4B\	in-	2e\	in-	4dd\	in-	4dd\	2ee\
8G\	.	.	.	.	16ee\L	.	.	.	.	.	.	.	.	.	.	.
.	.	.	.	.	16dd\JJ	.	.	.	.	.	.	.	.	.	.	.
8A\	.	.	.	.	8.cc#\L	.	4A\	.	4A\	.	.	.	4cc#\	.	4a/	.
8A\J	.	.	16f#/LL	.	.	.	.	.	.	.	.	.	.	.	.	.
.	.	.	16e/JJ	.	32b\LL	.	.	.	.	.	.	.	.	.	.	.
.	.	.	.	.	32cc#\JJJ	.	.	.	.	.	.	.	.	.	.	.
=20	=20	=20	=20	=20	=20	=20	=20	=20	=20	=20	=20	=20	=20	=20	=20	=20
!	!	!LO:DY:t=pio&colon;	!LO:TX:a:t=Solo&colon;	!	!LO:TX:a:t=dol&colon;	!	!	!	!	!	!	!	!	!	!	!
4D\	.	p	8f#/	.	8dd\	.	4D\	-te	4A\	-te	4f#\	-te	4dd\	-te	4f#/	4dd\
.	.	.	4d/	.	4dd\	.	.	.	.	.	.	.	.	.	.	.
4F#\	6 5	.	.	.	.	.	4r	.	4r	.	4r	.	4r	.	4r	4r
.	x n	.	8cn/	.	8ccn\	.	.	.	.	.	.	.	.	.	.	.
!	!	!	!	!	!	!	!	!	!	!	!	!	!	!	!LO:LB:g=original	!
=21	=21	=21	=21	=21	=21	=21	=21	=21	=21	=21	=21	=21	=21	=21	=21	=21
4G\	6 5	.	8B/	.	8b\	.	1r	.	0r	.	0r	.	0r	.	1r	1r
.	.	.	4e/	.	4ee\	.	.	.	.	.	.	.	.	.	.	.
4G#X\	6 5	.	.	.	.	.	.	.	.	.	.	.	.	.	.	.
.	.	.	8d/	.	8dd\	.	.	.	.	.	.	.	.	.	.	.
=22	=22	=22	=22	=22	=22	=22	=22	=22	=22	=22	=22	=22	=22	=22	=22	=22
8A\L	#	.	8.c#X/L	.	8.cc#Xt\L	.	.	.	.	.	.	.	.	.	.	.
8Gn\J	.	.	.	.	.	.	.	.	.	.	.	.	.	.	.	.
.	.	.	32B/LL	.	(32b\LL	.	.	.	.	.	.	.	.	.	.	.
.	.	.	32c#/JJJ	.	32cc#\JJJ)	.	.	.	.	.	.	.	.	.	.	.
4F#\	6	.	8d/L	.	8dd\L	.	.	.	.	.	.	.	.	.	.	.
.	.	.	8A/J	.	8a\J	.	.	.	.	.	.	.	.	.	.	.
!	!	!	!	!	!LO:LB:g=original	!	!	!	!	!	!	!	!	!	!	!
=23	=23	=23	=23	=23	=23	=23	=23	=23	=23	=23	=23	=23	=23	=23	=23	=23
4G\	6	.	8B/L	.	8b\L	.	2r	.	.	.	.	.	.	.	8r	8r
.	.	.	8g/	.	16gg\L	.	.	.	.	.	.	.	.	.	8ee\L	8gg\L
.	.	.	.	.	16ee\JJ	.	.	.	.	.	.	.	.	.	.	.
!LO:TX:t=P:problem= mixed beam	!	!	!	!	!	!	!	!	!	!	!	!	!	!	!	!
8A\L	4	.	8f#/	.	16ee\LL	.	.	.	.	.	.	.	.	.	8dd\	8ff#\
.	.	.	.	.	16dd\	.	.	.	.	.	.	.	.	.	.	.
8AA/J	3	.	8e/J	.	16dd\	.	.	.	.	.	.	.	.	.	8a\J	8ee\J
.	.	.	.	.	16cc#\JJ	.	.	.	.	.	.	.	.	.	.	.
!LO:LB:g=original	!	!	!	!	!	!	!	!	!	!	!	!	!	!	!	!
=24	=24	=24	=24	=24	=24	=24	=24	=24	=24	=24	=24	=24	=24	=24	=24	=24
!LO:TX:a:t=|	!	!	!	!LO:DY:a:t=p&colon;	!LO:TX:t=P:problem= mixed beam	!LO:DY:a:t=p&colon;	!	!	!	!	!	!	!	!	!	!
8D\L	.	.	8f#'/L	p	8dd'\L	p	8r	.	.	.	.	.	.	.	4f#/	4dd\
!LO:TX:a:t=|	!	!	!	!	!	!	!	!	!	!	!	!	!	!	!	!
8D\	.	.	8d'/	.	8d'/	.	8D\	Qui	.	.	.	.	.	.	.	.
!LO:TX:a:t=|	!	!	!	!	!	!	!	!	!	!	!	!	!	!	!	!
8F#\	.	.	8f#'/	.	8f#'/	.	8F#\	poſ-	.	.	.	.	.	.	4r	4r
!LO:TX:a:t=|	!	!	!	!	!	!	!	!	!	!	!	!	!	!	!	!
8A\J	.	.	8a'/J	.	8a'/J	.	8A\	-su-	.	.	.	.	.	.	.	.
=25	=25	=25	=25	=25	=25	=25	=25	=25	=25	=25	=25	=25	=25	=25	=25	=25
!LO:TX:a:t=|	!	!	!	!	!	!	!	!	!	!	!	!	!	!	!	!
4d\	.	.	8dd'\L	.	8dd'\L	.	4d\	-it	0r	.	0r	.	0r	.	1r	1r
.	.	.	(16ff#\L	.	(16ff#\L	.	.	.	.	.	.	.	.	.	.	.
.	.	.	16dd\JJ)	.	16dd\JJ)	.	.	.	.	.	.	.	.	.	.	.
!LO:TX:a:t=|	!	!	!	!	!	!	!	!	!	!	!	!	!	!	!	!
4A\	.	.	8a'/L	.	8a'/L	.	8A\	fi-	.	.	.	.	.	.	.	.
.	.	.	8a'/J	.	8a'/J	.	8A\	-nes	.	.	.	.	.	.	.	.
!	!	!	!LO:LB:g=original	!	!	!	!	!	!	!	!	!	!	!	!	!
=26	=26	=26	=26	=26	=26	=26	=26	=26	=26	=26	=26	=26	=26	=26	=26	=26
!LO:TX:a:t=|	!	!	!	!	!	!	!	!	!	!	!	!	!	!	!	!
8B\L	.	.	8b/L	.	8b'/L	.	8B\L	tu-	.	.	.	.	.	.	.	.
!LO:TX:a:t=|	!	!	!	!	!	!	!	!	!	!	!	!	!	!	!	!
8G\	.	.	8g/	.	8g'/J	.	8G\J	.	.	.	.	.	.	.	.	.
!	!	!	!	!	!	!	!LO:LB:g=original	!	!	!	!	!	!	!	!	!
!LO:TX:a:t=|	!	!	!	!	!	!	!	!	!	!	!	!	!	!	!	!
8E\	.	.	8e/	.	8e'/L	.	8E\L	-os	.	.	.	.	.	.	.	.
!LO:TX:a:t=|	!	!	!	!	!	!	!	!	!	!	!	!	!	!	!	!
8A\J	.	.	8a/J	.	8a'/J	.	8A\J	.	.	.	.	.	.	.	.	.
=27	=27	=27	=27	=27	=27	=27	=27	=27	=27	=27	=27	=27	=27	=27	=27	=27
!LO:TX:a:t=|	!	!	!	!	!	!	!	!	!	!	!	!	!	!	!	!
8F#\L	.	.	8f#/L	.	8f#'/L	.	8F#\	pa-	.	.	.	.	.	.	8r	8r
(16D\L	.	.	(16d/L	.	(16d/L	.	8D\	-cem	.	.	.	.	.	.	8d/L	8dd\L
16E\JJ)	.	.	16e/JJ)	.	16e/JJ)	.	.	.	.	.	.	.	.	.	.	.
!LO:TX:a:t=|	!	!	!	!	!	!	!	!	!	!	!	!	!	!	!	!
16F#\LL	.	.	16f#'/LL	.	16f#'/LL	.	4r	.	.	.	.	.	.	.	8d/	8dd\
!LO:TX:a:t=|	!	!	!	!	!	!	!	!	!	!	!	!	!	!	!	!
16D\	.	.	16d'/	.	16d'/	.	.	.	.	.	.	.	.	.	.	.
!LO:TX:a:t=|	!	!	!	!	!	!	!	!	!	!	!	!	!	!	!	!
16F#\	.	.	16f#'/	.	16f#/	.	.	.	.	.	.	.	.	.	8d/J	8dd\J
!LO:TX:a:t=|	!	!	!	!	!	!	!	!	!	!	!	!	!	!	!	!
16A\JJ	.	.	16a'/JJ	.	16a/JJ	.	.	.	.	.	.	.	.	.	.	.
=28	=28	=28	=28	=28	=28	=28	=28	=28	=28	=28	=28	=28	=28	=28	=28	=28
!LO:TX:a:t=|	!	!	!LO:TX:t=P:problem= mixed beam	!	!LO:TX:t=P:problem= mixed beam	!	!	!	!	!	!	!	!	!	!	!
8d\L	.	.	8dd\L	.	8dd\L	.	8r	.	.	.	.	.	.	.	4d/	4dd\
!LO:TX:a:t=|	!	!	!	!	!	!	!	!	!	!	!	!	!	!	!	!
8D\J	.	.	8d/J	.	8d/J	.	8d\	et	.	.	.	.	.	.	.	.
8r	.	.	8r	.	8r	.	16d\LL	a-	.	.	.	.	.	.	4r	4r
.	.	.	.	.	.	.	16c#\	.	.	.	.	.	.	.	.	.
8D\	6 5	.	8f#/	.	8dd\	.	16B\	.	.	.	.	.	.	.	.	.
.	.	.	.	.	.	.	16A\JJ	.	.	.	.	.	.	.	.	.
=29	=29	=29	=29	=29	=29	=29	=29	=29	=29	=29	=29	=29	=29	=29	=29	=29
4d\	4# 2	.	4e/	.	4b\	.	8.G#X\	.	0r	.	1r	.	1r	.	0r	0r
.	.	.	.	.	.	.	32F#\LLL	-di-	.	.	.	.	.	.	.	.
.	.	.	.	.	.	.	32G#\JJJ	.	.	.	.	.	.	.	.	.
4c#\	6	.	4e/	.	4cc#\	.	8A\	-pe	.	.	.	.	.	.	.	.
.	.	.	.	.	.	.	8A\	fru-	.	.	.	.	.	.	.	.
!	!	!	!	!	!LO:LB:g=original	!	!	!	!	!	!	!	!	!	!	!
=30	=30	=30	=30	=30	=30	=30	=30	=30	=30	=30	=30	=30	=30	=30	=30	=30
4G#X\	6 5	.	4e/	.	4.dd\	.	8.B\L	-men-	.	.	.	.	.	.	.	.
.	.	.	.	.	.	.	32c#\LL	.	.	.	.	.	.	.	.	.
.	.	.	.	.	.	.	32d\JJJ	.	.	.	.	.	.	.	.	.
!LO:TX:t=P:problem= mixed beam	!	!	!	!	!	!	!	!	!	!	!	!	!	!	!	!
8A\L	.	.	4e/	.	.	.	8c#\	-ti	.	.	.	.	.	.	.	.
!	!	!	!	!	!	!	!LO:LB:g=original	!	!	!	!	!	!	!	!	!
8C#/J	6	.	.	.	8cc#\	.	8A\	Sa-	.	.	.	.	.	.	.	.
!LO:LB:g=original	!	!	!	!	!	!	!	!	!	!	!	!	!	!	!	!
=31	=31	=31	=31	=31	=31	=31	=31	=31	=31	=31	=31	=31	=31	=31	=31	=31
!LO:TX:t=P:problem= mixed beam	!	!	!	!	!	!	!	!	!	!	!	!	!LO:TX:b:t=Verte Solo	!	!	!
8D\L	6	.	8f#/L	.	8dd\L	.	8d\L	.	.	.	2r	.	2r	.	.	.
8D\	.	.	8b/	.	16ff#\L	.	8B\J	.	.	.	.	.	.	.	.	.
.	.	.	.	.	16dd\JJ	.	.	.	.	.	.	.	.	.	.	.
8E/	4	.	8a/	.	8cc#\L	.	8e\	-ti-	.	.	.	.	.	.	.	.
8EE/J	#	.	8g#X/J	.	8b\J	.	8E\	-at	.	.	.	.	.	.	.	.
!	!	!	!	!	!	!	!	!	!	!	!LO:LB:g=original	!	!LO:PB:g=original	!	!	!
=32	=32	=32	=32	=32	=32	=32	=32	=32	=32	=32	=32	=32	=32	=32	=32	=32
!	!	!	!	!	!	!	!	!	!	!	!LO:TX:a:t=Solo&colon;	!	!LO:TX:rj:a:t=Solo&colon;	!	!	!
8AA/L	.	.	8a/L	.	8cc#\L	.	4A\	te	.	.	8a\	qui	8cc#\	qui	.	.
8AA/	.	.	16a/L	.	16cc#\L	.	.	.	.	.	16a\LL	a-	16cc#\LL	a-	.	.
.	.	.	16g/JJ	.	16b\JJ	.	.	.	.	.	16g#X\JJ	.	16b\JJ	.	.	.
8C#/	.	.	8a/L	.	8cc#\L	.	4r	.	.	.	8a\	-mit-	8cc#\	-mit-	.	.
8E/J	#	.	8b/J	.	8dd\J	.	.	.	.	.	8b\	-tit	8dd\	-tit	.	.
!	!	!	!LO:LB:g=original	!	!	!	!	!	!	!	!	!	!	!	!	!
=33	=33	=33	=33	=33	=33	=33	=33	=33	=33	=33	=33	=33	=33	=33	=33	=33
8A\L	.	.	(4.cc#\	.	(4.ee\	.	0r	.	0r	.	4.cc#\	W-	4.ee\	E-	0r	0r
16A\L	.	.	.	.	.	.	.	.	.	.	.	.	.	.	.	.
16G#X\JJ	.	.	.	.	.	.	.	.	.	.	.	.	.	.	.	.
!LO:TX:t=P:problem= mixed beam	!	!	!	!	!	!	!	!	!	!	!	!	!	!	!	!
8A\L	.	.	.	.	.	.	.	.	.	.	.	.	.	.	.	.
8AA/J	.	.	16dd\LL)	.	16ff#\LL)	.	.	.	.	.	16dd\LL	-lo-	16ff#\LL	-lo-	.	.
.	.	.	16cc#\JJ	.	16ee\JJ	.	.	.	.	.	16cc#\JJ	.	16ee\JJ	.	.	.
=34	=34	=34	=34	=34	=34	=34	=34	=34	=34	=34	=34	=34	=34	=34	=34	=34
*tremolo	*	*	*	*	*	*	*	*	*	*	*	*	*	*	*	*
8E\L	#	.	8.b\L	.	(8.ddT\L	.	.	.	.	.	8.b\	-qui-	8.dd\	-qui-	.	.
8E\	.	.	.	.	.	.	.	.	.	.	.	.	.	.	.	.
.	.	.	32a\LL	.	32cc#\LL	.	.	.	.	.	32a\LLL	-um	32cc#\LLL	-um	.	.
.	.	.	32b\JJJ	.	32dd\JJJ)	.	.	.	.	.	32b\JJJ	.	32dd\JJJ	.	.	.
8E\	.	.	8cc#\L	.	8ee\L	.	.	.	.	.	8cc#\	Su-	8ee\	Su-	.	.
8E\J	.	.	8b\J	.	8dd\J	.	.	.	.	.	8b\	-um	8dd\	-um	.	.
*Xtremolo	*	*	*	*	*	*	*	*	*	*	*	*	*	*	*	*
=35	=35	=35	=35	=35	=35	=35	=35	=35	=35	=35	=35	=35	=35	=35	=35	=35
!LO:TX:t=P:problem= mixed beam	!	!	!	!	!	!	!	!	!	!	!	!	!	!	!	!
8A\L	.	.	8b/L	.	8dd\L	.	.	.	.	.	8b\	ter-	8dd\	ter-	.	.
32AA/LL	.	.	8a/J	.	8cc#\J	.	.	.	.	.	8a\	-ra	8cc#\	-ra	.	.
(32BB/	.	.	.	.	.	.	.	.	.	.	.	.	.	.	.	.
32C#/	.	.	.	.	.	.	.	.	.	.	.	.	.	.	.	.
32BB/JJJ)	.	.	.	.	.	.	.	.	.	.	.	.	.	.	.	.
8AA/	.	.	8r	.	8r	.	.	.	.	.	8r	.	8r	.	.	.
8r	.	.	8a/	.	8cc#\	.	.	.	.	.	16a\	Ve-	16cc#\	Ve-	.	.
.	.	.	.	.	.	.	.	.	.	.	16a\	-lo-	16cc#\	-lo-	.	.
!	!	!	!	!	!	!	!	!	!	!	!LO:LB:g=original	!	!	!	!	!
=36	=36	=36	=36	=36	=36	=36	=36	=36	=36	=36	=36	=36	=36	=36	=36	=36
8r	.	.	16a/LL	.	16cc#\LL	.	.	.	.	.	16a\LL	-ci-	16cc#\LL	-ci-	.	.
.	.	.	16g#X/J	.	16b\J	.	.	.	.	.	16g#X\JJ	.	16b\JJ	.	.	.
(32E\LLL	.	.	8g#/J	.	8b\J	.	.	.	.	.	8g#\	-ter	8b\	-ter	.	.
32F#\	.	.	.	.	.	.	.	.	.	.	.	.	.	.	.	.
32G#X\	.	.	.	.	.	.	.	.	.	.	.	.	.	.	.	.
32F#\JJJ)	.	.	.	.	.	.	.	.	.	.	.	.	.	.	.	.
!	!	!	!	!	!LO:LB:g=original	!	!	!	!	!	!	!	!LO:LB:g=original	!	!	!
8E\	.	.	8r	.	8r	.	.	.	.	.	8r	.	8r	.	.	.
8r	.	.	8b/	.	8dd\	.	.	.	.	.	16b\	Ve-	16dd\	Ve-	.	.
.	.	.	.	.	.	.	.	.	.	.	16b\	-lo-	16dd\	-lo-	.	.
!LO:LB:g=original	!	!	!	!	!	!	!	!	!	!	!	!	!	!	!	!
=37	=37	=37	=37	=37	=37	=37	=37	=37	=37	=37	=37	=37	=37	=37	=37	=37
8r	.	.	16b/LL	.	16dd\LL	.	0r	.	0r	.	16b\LL	-ci-	16dd\LL	-ci-	0r	0r
.	.	.	16a/J	.	16cc#\J	.	.	.	.	.	16a\JJ	.	16cc#\JJ	.	.	.
(32A\LLL	.	.	8a/J	.	8cc#\J	.	.	.	.	.	8a\	-ter	8cc#\	-ter	.	.
32B\	.	.	.	.	.	.	.	.	.	.	.	.	.	.	.	.
32c#\	.	.	.	.	.	.	.	.	.	.	.	.	.	.	.	.
32B\JJJ)	.	.	.	.	.	.	.	.	.	.	.	.	.	.	.	.
8A\	.	.	8r	.	8r	.	.	.	.	.	8r	.	8r	.	.	.
8r	.	.	8cc#\	.	8cc#\	.	.	.	.	.	16cc#\	Cur-	16ee\	Cur-	.	.
.	.	.	.	.	.	.	.	.	.	.	16cc#\	-rit	16ee\	-rit	.	.
=38	=38	=38	=38	=38	=38	=38	=38	=38	=38	=38	=38	=38	=38	=38	=38	=38
8r	.	.	16cc#\LL	.	16ee\LL	.	.	.	.	.	8b\	Ser-	16ee\LL	Ser-	.	.
.	.	.	16b\	.	16dd\	.	.	.	.	.	.	.	16dd\JJ	.	.	.
!LO:TX:t=P:problem= mixed beam	!	!	!	!	!	!	!	!	!	!	!	!	!	!	!	!
8D\L	6	.	16dd\	.	16ff#\	.	.	.	.	.	16dd\LL	-mo	16ff#\LL	-mo	.	.
.	.	.	16b\JJ	.	16dd\JJ	.	.	.	.	.	16b\JJ	.	16dd\JJ	.	.	.
!	!	!	!LO:LB:g=original	!	!	!	!	!	!	!	!	!	!	!	!	!
8E\	4	.	8a/L	.	8cc#\L	.	.	.	.	.	8a\L	e-	8cc#\L	e-	.	.
8EE/J	#	.	8g#X/J	.	8b\J	.	.	.	.	.	8g#X\J	.	8b\J	.	.	.
=39	=39	=39	=39	=39	=39	=39	=39	=39	=39	=39	=39	=39	=39	=39	=39	=39
!	!	!	!	!	!	!LO:DY:a	!	!	!	!	!	!	!	!	!	!
8AA/	.	.	8a/	.	8cc#\	f	.	.	.	.	4a\	-jus	4cc#\	-jus	.	.
!	!	!LO:DY:a:t=for&colon;	!	!LO:DY:a	!	!	!	!	!	!	!	!	!	!	!	!
32r	.	f	32r	f	32r	.	.	.	.	.	.	.	.	.	.	.
(32E\LLL	.	.	(32e/LLL	.	(32e/LLL	.	.	.	.	.	.	.	.	.	.	.
32F#\	.	.	32f#/	.	32f#/	.	.	.	.	.	.	.	.	.	.	.
32G#X\JJJ	.	.	32g#X/JJJ)	.	32g/JJJ	.	.	.	.	.	.	.	.	.	.	.
16A\LL)	.	.	16a'/LL	.	16a/LL)	.	.	.	.	.	4r	.	4r	.	.	.
!LO:TX:a:t=|	!	!	!	!	!	!	!	!	!	!	!	!	!	!	!	!
16B\	.	.	16b'/	.	16b'/	.	.	.	.	.	.	.	.	.	.	.
!LO:TX:a:t=|	!	!	!	!	!	!	!	!	!	!	!	!	!	!	!	!
16c#\	.	.	16cc#'/	.	16cc#'/	.	.	.	.	.	.	.	.	.	.	.
!LO:TX:a:t=|	!	!	!	!	!	!	!	!	!	!	!	!	!	!	!	!
16B\JJ	.	.	16b'/JJ	.	16b'/JJ	.	.	.	.	.	.	.	.	.	.	.
!	!	!	!	!	!	!	!	!	!	!	!LO:LB:g=original	!	!	!	!	!
=40	=40	=40	=40	=40	=40	=40	=40	=40	=40	=40	=40	=40	=40	=40	=40	=40
!LO:TX:a:t=|	!	!	!	!	!	!	!	!	!	!	!	!	!	!	!	!
16A\LL	.	.	16a'/LL	.	16a'/LL	.	.	.	.	.	1r	.	1r	.	.	.
!LO:TX:a:t=|	!	!	!	!	!	!	!	!	!	!	!	!	!	!	!	!
16G#X\	.	.	16g#X'/	.	16g#X'/	.	.	.	.	.	.	.	.	.	.	.
!LO:TX:a:t=|	!	!	!	!	!	!	!	!	!	!	!	!	!	!	!	!
16F#\	.	.	16f#'/	.	16f#'/	.	.	.	.	.	.	.	.	.	.	.
!LO:TX:a:t=|	!	!	!	!	!	!	!	!	!	!	!	!	!	!	!	!
16E\JJ	.	.	16e'/JJ	.	16e'/JJ	.	.	.	.	.	.	.	.	.	.	.
!LO:TX:a:t=|	!	!	!	!	!	!	!	!	!	!	!	!	!	!	!	!
16F#\LL	.	.	16f#'/LL	.	16f#'/LL	.	.	.	.	.	.	.	.	.	.	.
!LO:TX:a:t=|	!	!	!	!	!	!	!	!	!	!	!	!	!	!	!	!
16G#\	.	.	16g#'/	.	16g#'/	.	.	.	.	.	.	.	.	.	.	.
!LO:TX:a:t=|	!	!	!	!	!	!	!	!	!	!	!	!	!	!	!	!
16A\	.	.	16a'/	.	16a'/	.	.	.	.	.	.	.	.	.	.	.
!LO:TX:a:t=|	!	!	!	!	!	!	!	!	!	!	!	!	!	!	!	!
16G#\JJ	.	.	16g#'/JJ	.	16g#'/JJ	.	.	.	.	.	.	.	.	.	.	.
!	!	!	!	!	!LO:LB:g=original	!	!	!	!	!	!	!	!	!	!	!
=41	=41	=41	=41	=41	=41	=41	=41	=41	=41	=41	=41	=41	=41	=41	=41	=41
!LO:TX:a:t=|	!	!	!	!	!	!	!	!	!	!	!	!	!	!	!	!
16F#\LL	.	.	16f#'/LL	.	16f#'/LL	.	1r	.	1r	.	.	.	.	.	1r	1r
!LO:TX:a:t=|	!	!	!	!	!	!	!	!	!	!	!	!	!	!	!	!
16E\	.	.	16e'/	.	16e'/	.	.	.	.	.	.	.	.	.	.	.
!LO:TX:a:t=|	!	!	!	!	!	!	!	!	!	!	!	!	!	!	!	!
16D\	.	.	16d'/	.	16d'/	.	.	.	.	.	.	.	.	.	.	.
!LO:TX:a:t=|	!	!	!	!	!	!	!	!	!	!	!	!	!	!	!	!
16C#\JJ	.	.	16c#'/JJ	.	16c#'/JJ	.	.	.	.	.	.	.	.	.	.	.
!LO:TX:a:t=|	!	!	!	!	!	!	!	!	!	!	!	!	!	!	!	!
!LO:LB:g=original	!	!	!	!	!	!	!	!	!	!	!	!	!	!	!	!
16D\LL	.	.	16d'/LL	.	16d'/LL	.	.	.	.	.	.	.	.	.	.	.
!LO:TX:a:t=|	!	!	!	!	!	!	!	!	!	!	!	!	!	!	!	!
16E\	.	.	16e'/	.	16e'/	.	.	.	.	.	.	.	.	.	.	.
!LO:TX:a:t=|	!	!	!	!	!	!	!	!	!	!	!	!	!	!	!	!
16F#\	.	.	16f#'/	.	16f#'/	.	.	.	.	.	.	.	.	.	.	.
!LO:TX:a:t=|	!	!	!	!	!	!	!	!	!	!	!	!	!	!	!	!
16E\JJ	.	.	16e'/JJ	.	16e'/JJ	.	.	.	.	.	.	.	.	.	.	.
=42	=42	=42	=42	=42	=42	=42	=42	=42	=42	=42	=42	=42	=42	=42	=42	=42
16D'/LL	.	.	16d'/LL	.	16d'/LL	.	.	.	.	.	2r	.	2r	.	.	.
16BB'/	.	.	16B'/	.	16B'/	.	.	.	.	.	.	.	.	.	.	.
16C#'/	.	.	16c#'/	.	16c#'/	.	.	.	.	.	.	.	.	.	.	.
16D'/JJ	.	.	16d'/JJ	.	16d'/JJ	.	.	.	.	.	.	.	.	.	.	.
!	!	!	!LO:LB:g=original	!	!	!	!	!	!	!	!	!	!	!	!	!
!LO:TX:t=P:problem= mixed beam	!	!	!	!	!	!	!	!	!	!	!	!	!	!	!	!
8E'\L	.	.	8e/L	.	8e'/L	.	.	.	.	.	.	.	.	.	.	.
8EE'/J	.	.	8e/J	.	8e'/J	.	.	.	.	.	.	.	.	.	.	.
=43	=43	=43	=43	=43	=43	=43	=43	=43	=43	=43	=43	=43	=43	=43	=43	=43
!LO:TX:a:t=tutti	!	!	!	!LO:DY:a:t=f&colon;	!	!LO:DY:a:t=f&colon;	!	!	!	!	!	!	!	!	!	!
4AA/	.	.	8c#/	f	8a/	f	4A\	Qui	4e\	qui	4a\	qui	4cc#\	qui	4a/	4ee\
.	.	.	4a/	.	4aa\	.	.	.	.	.	.	.	.	.	.	.
4A\	.	.	.	.	.	.	4A\	dat	4e\	dat	4a\	dat	4cc#\	dat	4r	4r
.	.	.	8cc#\	.	8ccc#\	.	.	.	.	.	.	.	.	.	.	.
!	!	!	!	!	!	!	!	!	!	!	!	!	!LO:LB:g=original	!	!	!
=44	=44	=44	=44	=44	=44	=44	=44	=44	=44	=44	=44	=44	=44	=44	=44	=44
4D\	6 5	.	8b\	.	8bb\	.	4D\	ni-	4f#\	ni-	4a\	ni-	4dd\	ni-	0r	0r
.	.	.	4a/	.	4aa\	.	.	.	.	.	.	.	.	.	.	.
4E\	#	.	.	.	.	.	4E\	-vem	4e\	-vem	4g#X\	-vem	4b\	-vem	.	.
.	.	.	8g#X/	.	8gg#X\	.	.	.	.	.	.	.	.	.	.	.
=45	=45	=45	=45	=45	=45	=45	=45	=45	=45	=45	=45	=45	=45	=45	=45	=45
4F#\	.	.	8.a/L	.	(8.aaT\L	.	4F#\	Si-	4f#\	Si-	4a\	Si-	4cc#\	Si-	.	.
.	.	.	32g#X/LL	.	32gg\LL	.	.	.	.	.	.	.	.	.	.	.
.	.	.	32a/JJJ	.	32aa\JJJ)	.	.	.	.	.	.	.	.	.	.	.
4D#X\	6 5	.	8b/L	.	8bb\L	.	4D#X\	-cut	4f#\	-cut	4a\	-cut	4b\	-cut	.	.
.	.	.	8a/J	.	8aa\J	.	.	.	.	.	.	.	.	.	.	.
!	!	!	!	!	!	!	!LO:LB:g=original	!	!LO:LB:g=original	!	!	!	!	!	!	!
=46	=46	=46	=46	=46	=46	=46	=46	=46	=46	=46	=46	=46	=46	=46	=46	=46
!LO:TX:t=P:problem= mixed beam	!	!	!	!	!	!	!	!	!	!	!	!	!	!	!	!
8E\L	4	.	8.aT/L	.	(8.aaT\L	.	4E\	la-	4e\	la-	4a\	la-	4cc#\	la-	.	.
8EE/	.	.	.	.	.	.	.	.	.	.	.	.	.	.	.	.
.	.	.	(32g#X/LL	.	32gg#X\LL)	.	.	.	.	.	.	.	.	.	.	.
.	.	.	32a/JJJ)	.	32aa\JJJ	.	.	.	.	.	.	.	.	.	.	.
8E\J	#	.	8g#/L	.	8gg#\L	.	8E\	-nam	8e\	-nam	8g#X\	-nam	8b\	-nam	.	.
8r	.	.	[<8e/J	.	8ee\J	.	8r	.	8r	.	8r	.	8r	.	.	.
!	!	!	!	!	!LO:PB:g=original	!	!	!	!	!	!	!	!	!	!	!
=47	=47	=47	=47	=47	=47	=47	=47	=47	=47	=47	=47	=47	=47	=47	=47	=47
4G#X\	6 5	.	8e/]	.	8ee\	.	4G#X\	Ne-	4e\	Ne-	4b\	Ne-	4dd\	Ne-	.	.
.	.	.	4d/	.	4dd\	.	.	.	.	.	.	.	.	.	.	.
4A\	.	.	.	.	.	.	8A\	-bu-	8e\	-bu-	8a\	-bu-	8cc#\	-bu-	.	.
.	.	.	[<8c#/	.	[<8cc#\	.	8A\	-lam	8e\	-lam	8a\	-lam	8cc#\	-lam	.	.
!LO:LB:g=original	!	!	!	!	!	!	!	!	!	!	!	!	!	!	!	!
=48	=48	=48	=48	=48	=48	=48	=48	=48	=48	=48	=48	=48	=48	=48	=48	=48
4B\	.	.	8c#/]	.	8cc#\]	.	4B\	Si-	4e\	Si-	4g#X\	Si-	4dd\	Si-	4r	4r
.	.	.	4d/	.	4dd\	.	.	.	.	.	.	.	.	.	.	.
4G#X\	6 5	.	.	.	.	.	4G#X\	-cut	4e\	-cut	4b\	-cut	4dd\	-cut	8r	8r
.	.	.	8e/	.	[<8ee\	.	.	.	.	.	.	.	.	.	8ee\	8ee\
!	!	!	!LO:LB:g=original	!	!	!	!	!	!	!	!LO:LB:g=original	!	!	!	!	!
=49	=49	=49	=49	=49	=49	=49	=49	=49	=49	=49	=49	=49	=49	=49	=49	=49
4A\	.	.	8e/	.	8ee\]	.	4A\	Ci-	4e\	Ci-	4a\	Ci-	4cc#\	Ci-	4a/	4ff#\
.	.	.	4a/	.	4aa\	.	.	.	.	.	.	.	.	.	.	.
4F#\	.	.	.	.	.	.	8F#\	-ne-	8f#\	-ne-	8a\	-ne-	8cc#\	-ne-	4a/	4ff#\
.	.	.	8cc#\	.	8ccc#\	.	8F#\	-rem	8f#\	-rem	8a\	-rem	8cc#\	-rem	.	.
!	!	!	!	!	!	!	!	!	!	!	!	!	!	!	!LO:LB:g=original	!LO:LB:g=original
=50	=50	=50	=50	=50	=50	=50	=50	=50	=50	=50	=50	=50	=50	=50	=50	=50
*	*	*	*	*	*	*	*	*	*	*	*	*	*2\right	*	*	*
4D\	6 5	.	8b\	.	8bb\	.	4D\	Spar-	(4f#\	Spar-	4a\	Spar-	2b\	Spar-	4dd\	4ff#\
.	.	.	4a/	.	4aa\	.	.	.	.	.	.	.	.	.	.	.
4E\	#	.	.	.	.	.	4E\	.	4e\)	.	4g#X\	.	.	.	4ee\	4ee\
.	.	.	8g#X/	.	8gg#X\	.	.	.	.	.	.	.	.	.	.	.
!	!	!	!	!	!	!	!	!	!	!	!	!	!LO:LB:g=original	!	!	!
=51	=51	=51	=51	=51	=51	=51	=51	=51	=51	=51	=51	=51	=51	=51	=51	=51
!	!	!	!LO:TX:a:t=Solo&colon;	!	!	!	!	!	!LO:TX:b:t=Verte	!	!	!	!	!	!	!
4AA/	.	.	8a/L	.	8aa\L	.	4AA/	-git	4e\	-git	4a\	-git	4cc#\	-git	4a/	4ee\
.	.	.	8gn/	.	8ggn\	.	.	.	.	.	.	.	.	.	.	.
4r	.	p	8f#/	.	8ff#\	.	4r	.	4r	.	4r	.	4r	.	4r	4r
.	.	.	8e/J	.	8ee\J	.	.	.	.	.	.	.	.	.	.	.
=52	=52	=52	=52	=52	=52	=52	=52	=52	=52	=52	=52	=52	=52	=52	=52	=52
8r	.	.	4.d#X/	.	4.dd#X\	.	0r	.	0r	.	0r	.	0r	.	0r	0r
8A\L	4# 2	.	.	.	.	.	.	.	.	.	.	.	.	.	.	.
8F#\	_ _	.	.	.	.	.	.	.	.	.	.	.	.	.	.	.
8D#X\J	x	.	(16e/LL	.	16ee\LL	.	.	.	.	.	.	.	.	.	.	.
.	.	.	16f#/JJ)	.	16ff#\JJ	.	.	.	.	.	.	.	.	.	.	.
=53	=53	=53	=53	=53	=53	=53	=53	=53	=53	=53	=53	=53	=53	=53	=53	=53
4E\	n	.	8g/L	.	8gg\L	.	.	.	.	.	.	.	.	.	.	.
.	.	.	8f#/	.	8ff#\	.	.	.	.	.	.	.	.	.	.	.
4r	.	.	8e/	.	8ee\	.	.	.	.	.	.	.	.	.	.	.
.	.	.	8dn/J	.	8ddn\J	.	.	.	.	.	.	.	.	.	.	.
!	!	!	!	!	!LO:LB:g=original	!	!	!	!	!	!	!	!	!	!	!
=54	=54	=54	=54	=54	=54	=54	=54	=54	=54	=54	=54	=54	=54	=54	=54	=54
8r	.	.	4.c#/	.	4.cc#\	.	.	.	.	.	.	.	.	.	.	.
8G\L	4 2	.	.	.	.	.	.	.	.	.	.	.	.	.	.	.
8E\	_ _	.	.	.	.	.	.	.	.	.	.	.	.	.	.	.
8C#\J	x	.	(16d/LL	.	16dd\LL	.	.	.	.	.	.	.	.	.	.	.
.	.	.	16e/JJ)	.	16ee\JJ	.	.	.	.	.	.	.	.	.	.	.
=55	=55	=55	=55	=55	=55	=55	=55	=55	=55	=55	=55	=55	=55	=55	=55	=55
4Dn\	.	.	8f#/L	.	8ff#\L	.	.	.	.	.	.	.	.	.	.	.
.	.	.	8e/	.	8ee\	.	.	.	.	.	.	.	.	.	.	.
8r	.	.	8d/J	.	8dd\J	.	.	.	.	.	.	.	.	.	.	.
!	!	!	!LO:LB:g=original	!	!	!	!	!	!	!	!	!	!	!	!	!
8F#\	6	.	[<8d#X/	.	[<8dd#X\	.	.	.	.	.	.	.	.	.	.	.
!LO:LB:g=original	!	!	!	!	!	!	!	!	!	!	!	!	!	!	!	!
=56	=56	=56	=56	=56	=56	=56	=56	=56	=56	=56	=56	=56	=56	=56	=56	=56
4G\	5	.	8d#/]	.	8dd#\]	.	0r	.	0r	.	0r	.	0r	.	0r	0r
.	6	.	4e/	.	4ee\	.	.	.	.	.	.	.	.	.	.	.
4A\	5	.	.	.	.	.	.	.	.	.	.	.	.	.	.	.
.	6	.	[<8f#/	.	[<8ff#\	.	.	.	.	.	.	.	.	.	.	.
=57	=57	=57	=57	=57	=57	=57	=57	=57	=57	=57	=57	=57	=57	=57	=57	=57
4B\	5	.	8f#/]	.	8ff#\]	.	.	.	.	.	.	.	.	.	.	.
.	6	.	4g/	.	4gg\	.	.	.	.	.	.	.	.	.	.	.
4A\	7	.	.	.	.	.	.	.	.	.	.	.	.	.	.	.
.	6	.	[<8f#/	.	[<8ff#\	.	.	.	.	.	.	.	.	.	.	.
=58	=58	=58	=58	=58	=58	=58	=58	=58	=58	=58	=58	=58	=58	=58	=58	=58
4G\	7	.	8f#/]	.	8ff#\]	.	.	.	.	.	.	.	.	.	.	.
.	6	.	4e/	.	4ee\	.	.	.	.	.	.	.	.	.	.	.
4G#X\	6	.	.	.	.	.	.	.	.	.	.	.	.	.	.	.
.	5	.	8dn/	.	8dd\	.	.	.	.	.	.	.	.	.	.	.
=59	=59	=59	=59	=59	=59	=59	=59	=59	=59	=59	=59	=59	=59	=59	=59	=59
4A\	.	.	4c#/	.	8cc#\L	.	.	.	.	.	.	.	.	.	.	.
.	.	.	.	.	8qgg#X/	.	.	.	.	.	.	.	.	.	.	.
.	.	.	.	.	8aa\J	.	.	.	.	.	.	.	.	.	.	.
4r	.	.	4r	.	16ggn\LL	.	.	.	.	.	.	.	.	.	.	.
.	.	.	.	.	16ff#\	.	.	.	.	.	.	.	.	.	.	.
.	.	.	.	.	16ee\	.	.	.	.	.	.	.	.	.	.	.
.	.	.	.	.	16dd\JJ	.	.	.	.	.	.	.	.	.	.	.
=60	=60	=60	=60	=60	=60	=60	=60	=60	=60	=60	=60	=60	=60	=60	=60	=60
8r	.	.	8r	.	4.cc#\	.	0r	.	0r	.	0r	.	0r	.	2a/	2ee\
8AA/L	.	.	8e/L	.	.	.	.	.	.	.	.	.	.	.	.	.
8AA/	.	.	8e/	.	.	.	.	.	.	.	.	.	.	.	.	.
8AA/J	.	.	8e/J	.	16b\LL	.	.	.	.	.	.	.	.	.	.	.
.	.	.	.	.	16cc#\JJ	.	.	.	.	.	.	.	.	.	.	.
!	!	!	!	!	!LO:LB:g=original	!	!	!	!	!	!	!	!	!	!	!
=61	=61	=61	=61	=61	=61	=61	=61	=61	=61	=61	=61	=61	=61	=61	=61	=61
4D\	.	.	4f#/	.	8dd\L	.	.	.	.	.	.	.	.	.	2f#/	2dd\
.	.	.	.	.	8qgg/	.	.	.	.	.	.	.	.	.	.	.
.	.	.	.	.	8aa\J	.	.	.	.	.	.	.	.	.	.	.
4r	.	.	4r	.	16gg\LL	.	.	.	.	.	.	.	.	.	.	.
.	.	.	.	.	16ff#\	.	.	.	.	.	.	.	.	.	.	.
.	.	.	.	.	16ee\	.	.	.	.	.	.	.	.	.	.	.
.	.	.	.	.	16dd\JJ	.	.	.	.	.	.	.	.	.	.	.
=62	=62	=62	=62	=62	=62	=62	=62	=62	=62	=62	=62	=62	=62	=62	=62	=62
8r	.	.	8r	.	4.cc#\	.	.	.	.	.	.	.	.	.	2a/	2ee\
8AA/L	.	.	8e/L	.	.	.	.	.	.	.	.	.	.	.	.	.
8AA/	.	.	8e/	.	.	.	.	.	.	.	.	.	.	.	.	.
8AA/J	.	.	8e/J	.	16b\LL	.	.	.	.	.	.	.	.	.	.	.
.	.	.	.	.	16cc#\JJ	.	.	.	.	.	.	.	.	.	.	.
!	!	!	!LO:LB:g=original	!	!	!	!	!	!	!	!	!	!	!	!	!
=63	=63	=63	=63	=63	=63	=63	=63	=63	=63	=63	=63	=63	=63	=63	=63	=63
!	!	!	!	!	!	!	!LO:TX:b:t=Verte	!	!	!	!	!	!	!	!	!
4D\	.	.	4f#/	.	4dd\	.	.	.	.	.	.	.	.	.	4f#/	4dd\
4r	.	.	4r	.	4r	.	.	.	.	.	.	.	.	.	4r	4r
!LO:LB:g=original	!	!	!	!	!	!	!LO:PB:g=original	!	!LO:PB:g=original	!	!	!	!	!	!	!
=64	=64	=64	=64	=64	=64	=64	=64	=64	=64	=64	=64	=64	=64	=64	=64	=64
!LO:TX:a:t=tutti	!	!	!	!LO:DY:a	!	!LO:DY:a	!	!	!	!	!	!	!	!	!	!
8F#\L	.	.	8r	f	8r	f	8E\	Mit-	8c#\	Mit-	8a\	Mit-	8ff#\	mit-	0r	0r
8F#\J	.	.	32a/LLL	.	(32ff#\LLL	.	8F#\	-tit	8c#\	-tit	8a\	-tit	8ff#\	-lit	.	.
.	.	.	(32g#X/	.	32ee#X\	.	.	.	.	.	.	.	.	.	.	.
.	.	.	32a/	.	32ff#\	.	.	.	.	.	.	.	.	.	.	.
.	.	.	32b/JJ)	.	32gg#X\JJJ)	.	.	.	.	.	.	.	.	.	.	.
8r	.	.	8cc#/J	.	8aa\	.	8r	.	8r	.	8r	.	8r	.	.	.
8F#\	.	.	8r	.	8r	.	8F#\	Cry-	8c#\	Cry-	8a\	Cry-	8ff#\	Cryſ-	.	.
=65	=65	=65	=65	=65	=65	=65	=65	=65	=65	=65	=65	=65	=65	=65	=65	=65
8E#X\L	6 #	.	8r	.	8r	.	8E#X\	-ſtal-	8c#\	-ſtal-	8b\	-ſtal-	8gg#X\	-tal-	.	.
8E#\J	_ _	.	(32b\LLL	.	(32gg#X\LLL	.	8E#\	-lum	8c#\	-lum	8b\	-lum	8gg#\	-lum	.	.
.	.	.	32a\	.	32ff#\	.	.	.	.	.	.	.	.	.	.	.
.	.	.	32b\)	.	32gg#\	.	.	.	.	.	.	.	.	.	.	.
.	.	.	32cc#\JJ	.	32aa\JJJ)	.	.	.	.	.	.	.	.	.	.	.
8r	x	.	8b\J	.	8gg#\	.	8r	.	8r	.	8r	.	8r	.	.	.
8E#\	.	.	8r	.	8r	.	8E#\	Su-	8c#\	Su-	8b\	Su-	8gg#\	Su-	.	.
!	!	!	!	!	!	!	!	!	!	!	!LO:LB:g=original	!	!	!	!	!
=66	=66	=66	=66	=66	=66	=66	=66	=66	=66	=66	=66	=66	=66	=66	=66	=66
8F#\L	.	.	8r	.	8r	.	8F#\	-am	8c#\	-am	8a\	-am	8ff#\	-am	.	.
8F#\	.	.	32a/LLL	.	(32ff#\LLL	.	8E\	Si-	8c#\	Si-	8a\	Si-	8ff#\	Si-	.	.
.	.	.	(32g#X/	.	32ee#X\	.	.	.	.	.	.	.	.	.	.	.
.	.	.	32a/	.	32ff#\)	.	.	.	.	.	.	.	.	.	.	.
.	.	.	32b/JJJ)	.	32gg#X\JJJ	.	.	.	.	.	.	.	.	.	.	.
!	!	!	!	!	!LO:LB:g=original	!	!	!	!	!	!	!	!	!	!	!
8A\	6	.	8cc#/L	.	16ff#\LL	.	8A\	-cut	8c#\	-cut	8a\	-cut	8ff#\	-cut	.	.
.	.	.	.	.	16cc#\	.	.	.	.	.	.	.	.	.	.	.
8F#\J	.	.	8a/J	.	16aa\	.	8E\	bu-	8c#\	bu-	8a\	bu-	8ff#\	bu-	.	.
.	.	.	.	.	16ff#\JJ	.	.	.	.	.	.	.	.	.	.	.
=67	=67	=67	=67	=67	=67	=67	=67	=67	=67	=67	=67	=67	=67	=67	=67	=67
!LO:TX:t=P:problem= mixed beam	!	!	!	!	!	!	!	!	!	!	!	!	!	!	!	!
8c#\L	4	.	8a/L	.	8ff#\L	.	8c#\	-cel-	8c#\	-cel-	8a\	-cel-	8ff#\	-cel-	.	.
8C#/J	#	.	8g#X/J	.	8ee#X\J	.	8C#/	-las	8c#\	-las	8g#X\	-las	8ee#X\	-las	.	.
!	!	!	!	!	!	!	!	!	!	!	!	!	!LO:LB:g=original	!	!	!
16E#X\LL	6	.	16e#X'/LL	.	16e#X'/LL	.	8c#\	an-	8c#\	an-	8cc#\	an-	8cc#\	an-	.	.
16F#\	_	.	16f#'/	.	16f#'/	.	.	.	.	.	.	.	.	.	.	.
16G#X\	.	.	16g#'/	.	16g#X'/	.	8c#\	-te	8c#\	-te	8cc#\	-te	8cc#\	-te	.	.
16E#\JJ	.	.	16e#'/JJ	.	16e#'/JJ	.	.	.	.	.	.	.	.	.	.	.
!	!	!	!LO:LB:g=original	!	!	!	!LO:LB:g=original	!	!LO:LB:g=original	!	!	!	!	!	!	!
=68	=68	=68	=68	=68	=68	=68	=68	=68	=68	=68	=68	=68	=68	=68	=68	=68
16F#\LL	.	.	16f#'/LL	.	16f#'/LL	.	8.c#\	fa-	8.c#\	fa-	8.cc#\	fa-	8.cc#\	fa-	0r	0r
16G#X\	.	.	16g#X'/	.	16g#X'/	.	.	.	.	.	.	.	.	.	.	.
16A\	.	.	16a'/	.	16a'/	.	.	.	.	.	.	.	.	.	.	.
16G#\JJ	x	.	16g#'/JJ	.	16g#'/JJ	.	16B\	-ci-	16B\	-ci-	16b\	-ci-	16b\	-ci-	.	.
16F#\LL	.	.	16f#'/LL	.	16f#'/LL	.	8A\	-em	8A\	-em	8a\	-em	8a\	-em	.	.
16G#\	.	.	16g#'/	.	16g#'/	.	.	.	.	.	.	.	.	.	.	.
16A\	.	.	16a'/	.	16a'/	.	8r	.	8r	.	8r	.	8r	.	.	.
16F#\JJ	.	.	16f#'/JJ	.	16f#'/JJ	.	.	.	.	.	.	.	.	.	.	.
!LO:LB:g=original	!	!	!	!	!	!	!	!	!	!	!	!	!	!	!	!
=69	=69	=69	=69	=69	=69	=69	=69	=69	=69	=69	=69	=69	=69	=69	=69	=69
16E#X\LL	6	.	16e#X'/LL	.	16e#X'/LL	.	8r	.	8r	.	8r	.	8r	.	.	.
16F#\	.	.	16f#'/	.	16f#'/	.	.	.	.	.	.	.	.	.	.	.
16G#X\	_	.	16g#X'/	.	16g#X'/	.	8c#\	fri-	8c#\	fri-	8cc#\	fri-	8cc#\	fri-	.	.
16F#\JJ	.	.	16f#'/JJ	.	16f#'/JJ	.	.	.	.	.	.	.	.	.	.	.
16E#\LL	.	.	16e#'/LL	.	16e#'/LL	.	8c#\	-go-	8c#\	-go-	8cc#\	-go-	8cc#\	-go-	.	.
16F#\	.	.	16f#'/	.	16f#'/	.	.	.	.	.	.	.	.	.	.	.
16G#\	.	.	16g#'/	.	16g#'/	.	8c#\	-ris	8c#\	-ris	8cc#\	-ris	8cc#\	-ris	.	.
16E#\JJ	x	.	16f#'/JJ	.	16e#'/JJ	.	.	.	.	.	.	.	.	.	.	.
!	!	!	!	!	!	!	!	!	!	!	!LO:LB:g=original	!	!	!	!	!
=70	=70	=70	=70	=70	=70	=70	=70	=70	=70	=70	=70	=70	=70	=70	=70	=70
16F#\LL	.	.	16f#'/LL	.	16f#'/LL	.	8.c#\L	e-	8.c#\L	e-	8.cc#\L	e-	8.cc#\L	e-	.	.
16G#X\	.	.	16g#X'/	.	16g#X'/	.	.	.	.	.	.	.	.	.	.	.
16A\	.	.	16a'/	.	16a'/	.	.	.	.	.	.	.	.	.	.	.
16G#\JJ	.	.	16g#'/JJ	.	16g#'/JJ	.	16B\Jk	.	16B\Jk	.	16b\Jk	.	16b\Jk	.	.	.
8F#\	.	.	8f#'/	.	8f#'/	.	8A\	-jus	8A\	-jus	8a\	-jus	8a\	-jus	.	.
8r	.	.	8r	.	8r	.	8r	.	8r	.	8r	.	8r	.	.	.
!	!	!	!	!	!LO:LB:g=original	!	!	!	!	!	!	!	!	!	!	!
=71	=71	=71	=71	=71	=71	=71	=71	=71	=71	=71	=71	=71	=71	=71	=71	=71
8r	.	.	8r	.	8r	.	8E#X\	quis	8c#\	quis	8g#X\	quis	8b\	quis	.	.
32E#X\LLL	#	.	32g#X/LLL	.	(32g#X/LLL	.	8r	.	8r	.	8r	.	8r	.	.	.
32F#\	3	.	(32a/	.	32a/	.	.	.	.	.	.	.	.	.	.	.
32E#\	#	.	32g#/	.	32g#/	.	.	.	.	.	.	.	.	.	.	.
32D\JJ	3	.	32f#/JJ)	.	32f#/JJJ)	.	.	.	.	.	.	.	.	.	.	.
8C#\J	#	.	8e#X/J	.	8e#X/	.	4r	.	4r	.	4r	.	4r	.	.	.
8r	.	.	8r	.	8r	.	.	.	.	.	.	.	.	.	.	.
!	!	!	!LO:LB:g=original	!	!	!	!	!	!	!	!	!	!	!	!	!
=72	=72	=72	=72	=72	=72	=72	=72	=72	=72	=72	=72	=72	=72	=72	=72	=72
*	*	*	*	*	*	*	*	*ij	*	*ij	*	*ij	*	*ij	*	*
8r	.	.	8r	.	8r	.	8F#\	quis	8c#\	quis	8f#\	quis	8a\	quis	1r	1r
*	*	*	*	*	*	*	*	*	*	*	*	*	*	*Xij	*	*
32F#\LLL	3	.	32a/LLL	.	32a/LLL	.	8r	.	8r	.	8r	.	8r	.	.	.
32E#X\	#	.	32g#X/	.	(32g#X/	.	.	.	.	.	.	.	.	.	.	.
32F#\	3	.	32a/	.	32a/	.	.	.	.	.	.	.	.	.	.	.
32G#X\JJJ	3	.	32b/JJJ	.	32b/JJJ)	.	.	.	.	.	.	.	.	.	.	.
!	!	!	!	!	!	!	!	!	!	!	!	!	!LO:LB:g=original	!	!	!
8A\L	3	.	8cc#/L	.	8cc#\L	.	8r	.	8r	.	8r	.	8r	.	.	.
8F#\J	3	.	8a/J	.	8ff#\J	.	8F#\	quis	8c#\	quis	8a\	quis	8ff#\	quis	.	.
*	*	*	*	*	*	*	*	*Xij	*	*Xij	*	*Xij	*	*	*	*
!LO:LB:g=original	!	!	!	!	!	!	!LO:LB:g=original	!	!LO:LB:g=original	!	!	!	!	!	!	!
=73	=73	=73	=73	=73	=73	=73	=73	=73	=73	=73	=73	=73	=73	=73	=73	=73
!LO:TX:t=P:problem= mixed beam	!	!	!	!	!	!	!	!	!	!	!	!	!	!	!	!
8B\L	6	.	8b\L	.	8gg#X\L	.	8B\	Sus-	8d\	Suſ-	8b\	Suſ-	8gg#X\	Suſ-	.	.
8B\	.	.	16dd\L	.	16bb\L	.	8B\	-ti-	8d\	-ti-	8b\	-ti-	8gg#\	-ti-	.	.
.	.	.	16b\JJ	.	16gg#\JJ	.	.	.	.	.	.	.	.	.	.	.
!	!	!	!	!	!	!	!LO:TX:t=P:problem= mixed beam	!	!	!	!	!	!	!	!	!
8c#\	4	.	8a/L	.	8ff#\L	.	8c#\L	-ne-	4c#\	-ne-	8a\L	-ne-	8ff#\L	-ne-	.	.
8C#/J	#	.	8g#X/J	.	8ee#X\J	.	8C#/J	.	.	.	8g#X\J	.	8ee#X\J	.	.	.
=74	=74	=74	=74	=74	=74	=74	=74	=74	=74	=74	=74	=74	=74	=74	=74	=74
8F#\L	.	.	8a/L	.	4.ff#\	.	4F#\	-bit	4c#\	-bit	4a\	-bit	4ff#\	-bit	2f#/	2ff#\
8F#\	.	.	8a/	.	.	.	.	.	.	.	.	.	.	.	.	.
8F#\	.	.	8a/	.	.	.	4F#\	E-	4f#\	E-	4a\	E-	4cc#\	E-	.	.
8F#\J	.	.	8a/J	.	16aa\LL	.	.	.	.	.	.	.	.	.	.	.
.	.	.	.	.	16ff#\JJ	.	.	.	.	.	.	.	.	.	.	.
!	!	!	!	!	!	!	!	!	!	!	!LO:LB:g=original	!	!	!	!	!
=75	=75	=75	=75	=75	=75	=75	=75	=75	=75	=75	=75	=75	=75	=75	=75	=75
*tremolo	*	*	*tremolo	*	*	*	*	*	*	*	*	*	*	*	*	*
8F#\L	.	.	8a/L	.	4.cc#\	.	4F#\	-mit-	4f#\	-mit-	4a\	-mit-	4cc#\	-mit-	2f#/	2ff#\
8F#\	.	.	8a/	.	.	.	.	.	.	.	.	.	.	.	.	.
8F#\	.	.	8a/	.	.	.	4F#\	-tet	4f#\	-tet	4a\	-tet	4cc#\	-tet	.	.
8F#\J	.	.	8a/J	.	16a\LL	.	.	.	.	.	.	.	.	.	.	.
.	.	.	.	.	16cc#\JJ	.	.	.	.	.	.	.	.	.	.	.
=76	=76	=76	=76	=76	=76	=76	=76	=76	=76	=76	=76	=76	=76	=76	=76	=76
8F#\L	6 4	.	8b/L	.	16dd\LL	.	4F#\	Ver-	4f#\	Ver-	4b\	Ver-	4dd\	Ver-	2f#/	2ff#\
.	.	.	.	.	16cc#\	.	.	.	.	.	.	.	.	.	.	.
8F#\	.	.	8b/	.	16dd\	.	.	.	.	.	.	.	.	.	.	.
.	.	.	.	.	16ee#X\JJ	.	.	.	.	.	.	.	.	.	.	.
8F#\	.	.	8b/	.	8ff#\L	.	4F#\	-bum	4f#\	-bum	4b\	-bum	4dd\	-bum	.	.
8F#\J	.	.	8b/J	.	16ee#\L	.	.	.	.	.	.	.	.	.	.	.
.	.	.	.	.	16dd\JJ	.	.	.	.	.	.	.	.	.	.	.
*Xtremolo	*	*	*Xtremolo	*	*	*	*	*	*	*	*	*	*	*	*	*
!	!	!	!	!	!LO:LB:g=original	!	!	!	!	!	!	!	!	!	!	!
=77	=77	=77	=77	=77	=77	=77	=77	=77	=77	=77	=77	=77	=77	=77	=77	=77
!LO:TX:t=P:problem= mixed beam	!	!	!	!	!	!	!	!	!	!	!	!	!	!	!	!
8F#\L	_ _	.	8b/L	.	8.dd\L	.	4F#\	Su-	4f#\	Su-	4b\	Su-	4dd\	Su-	4f#/	4ff#\
8F#\	.	.	8b/	.	.	.	.	.	.	.	.	.	.	.	.	.
.	.	.	.	.	32cc#\LL	.	.	.	.	.	.	.	.	.	.	.
.	.	.	.	.	32dd\JJJ	.	.	.	.	.	.	.	.	.	.	.
8FF#/	3	.	8a/	.	8cc#\L	.	8F#\	-um	8f#\	-um	8a\	-um	8cc#\	-um	8f#/	8ff#\
8F#\J	.	.	8a/J	.	8cc#\J	.	8F#\	&	8c#\	&	8a\	&	8cc#\	et	8r	8r
!	!	!	!LO:PB:g=original	!	!	!	!	!	!	!	!	!	!	!	!LO:LB:g=original	!LO:LB:g=original
=78	=78	=78	=78	=78	=78	=78	=78	=78	=78	=78	=78	=78	=78	=78	=78	=78
*tremolo	*	*	*	*	*	*	*	*	*	*	*	*	*	*	*	*
8E#X\L	6 5	.	8g#X/L	.	8b\L	.	4E#X\	li-	4c#\	li-	4g#X\	li-	4b\	li-	0r	0r
8E#X\	.	.	8g#/	.	(32gg#X\LL	.	.	.	.	.	.	.	.	.	.	.
.	.	.	.	.	32ff#\	.	.	.	.	.	.	.	.	.	.	.
.	.	.	.	.	32gg#\	.	.	.	.	.	.	.	.	.	.	.
.	.	.	.	.	32aa\JJJ)	.	.	.	.	.	.	.	.	.	.	.
8E#X\	.	.	8g#/	.	16gg#\LL	.	4E#\	-que	4c#\	-que	4g#\	-que	4b\	-que-	.	.
.	.	.	.	.	16ee#X\	.	.	.	.	.	.	.	.	.	.	.
8E#X\J	.	.	8g#/J	.	16cc#\	.	.	.	.	.	.	.	.	.	.	.
.	.	.	.	.	16b\JJ	.	.	.	.	.	.	.	.	.	.	.
!	!	!	!	!	!	!	!LO:LB:g=original	!	!LO:LB:g=original	!	!	!	!LO:LB:g=original	!	!	!
=79	=79	=79	=79	=79	=79	=79	=79	=79	=79	=79	=79	=79	=79	=79	=79	=79
8F#\L	.	.	8a/L	.	8a\L	.	4F#\	fa-	4c#\	Fa-	8.f#\	fa-	4a\	-fa-	.	.
8F#\	.	.	8a/	.	(32cc#\LL	.	.	.	.	.	.	.	.	.	.	.
.	.	.	.	.	32b\	.	.	.	.	.	.	.	.	.	.	.
.	.	.	.	.	32cc#\	.	.	.	.	.	16f#\	-ci-	.	.	.	.
.	.	.	.	.	32dd\JJJ)	.	.	.	.	.	.	.	.	.	.	.
8F#\	.	.	8a/	.	16cc#\LL	.	8F#\	-ci-	8c#\	-ci-	4f#\	-et	8a\	-ci-	.	.
.	.	.	.	.	16ff#\	.	.	.	.	.	.	.	.	.	.	.
8F#\J	.	.	8a/J	.	16aa\	.	8F#\	-et	8c#\	-et	.	.	8a\	-et	.	.
.	.	.	.	.	16ff#\JJ	.	.	.	.	.	.	.	.	.	.	.
*Xtremolo	*	*	*	*	*	*	*	*	*	*	*	*	*	*	*	*
=80	=80	=80	=80	=80	=80	=80	=80	=80	=80	=80	=80	=80	=80	=80	=80	=80
!LO:TX:t=P:problem= mixed beam	!	!	!	!	!	!	!	!	!	!	!	!	!	!	!	!
8B\L	6	.	8b\L	.	16gg#X\LL	.	4B\	e-	4d\	e-	4g#X\	e-	4b\	e-	.	.
.	.	.	.	.	16dd\	.	.	.	.	.	.	.	.	.	.	.
8B\	_	.	16dd\L	.	16bb\	.	.	.	.	.	.	.	.	.	.	.
.	.	.	16b\JJ	.	16gg#\JJ	.	.	.	.	.	.	.	.	.	.	.
!	!	!	!	!	!	!	!LO:TX:t=P:problem= mixed beam	!	!	!	!	!	!	!	!	!
8c#\	4	.	8a/L	.	8ff#\L	.	8c#\L	.	4c#\	.	8f#\L	.	8a\L	.	.	.
8C#/J	#	.	8g#X/J	.	8ee#X\J	.	8C#/J	.	.	.	8e#X\J	.	8g#X\J	.	.	.
!LO:LB:g=original	!	!	!	!	!	!	!	!	!	!	!LO:LB:g=original	!	!	!	!	!
=81	=81	=81	=81	=81	=81	=81	=81	=81	=81	=81	=81	=81	=81	=81	=81	=81
!LO:TX:t=P:problem= mixed beam	!	!	!	!	!	!	!	!	!	!	!	!	!	!	!	!
8F#\L	.	.	8a/L	.	8ff#\L	.	4F#\	-a	4c#\	-a	4f#\	-a	4a\	-a	.	.
8FF#/	.	.	16a/L	.	(32ff#\LL	.	.	.	.	.	.	.	.	.	.	.
.	.	.	.	.	32gg#X\	.	.	.	.	.	.	.	.	.	.	.
.	.	.	16cc#/JJ	.	32aa\	.	.	.	.	.	.	.	.	.	.	.
.	.	.	.	.	32gg#\JJJ)	.	.	.	.	.	.	.	.	.	.	.
8F#\J	.	.	16ff#\LL	.	16ff#\LL	.	4r	.	4r	.	4r	.	4r	.	.	.
.	.	.	16een\	.	16een\	.	.	.	.	.	.	.	.	.	.	.
8r	.	.	16dd\	.	16dd\	.	.	.	.	.	.	.	.	.	.	.
.	.	.	16cc#\JJ	.	16cc#\JJ	.	.	.	.	.	.	.	.	.	.	.
!	!	!	!	!	!LO:LB:g=original	!	!	!	!	!	!	!	!	!	!	!
=82	=82	=82	=82	=82	=82	=82	=82	=82	=82	=82	=82	=82	=82	=82	=82	=82
8r	.	.	4.a#X/	.	4.a#X/	.	8r	.	8r	.	8r	.	8r	.	8r	8r
!LO:TX:t=P:problem= mixed beam	!	!	!	!	!	!	!	!	!	!	!	!	!	!	!	!
8FF#/L	#	.	.	.	.	.	4F#\	fla-	4c#\	fla-	4f#\	fla-	4a#X\	fla-	8f#/L	8ff#\L
8E\	_	.	.	.	.	.	.	.	.	.	.	.	.	.	8f#/	8ff#\
8En\J	x	.	16g/LL	.	16g/LL	.	8En\	-bit	8c#\	-bit	8f#\	-bit	8a#\	-bit	8f#/J	8ff#\J
.	.	.	16a#/JJ	.	16a#/JJ	.	.	.	.	.	.	.	.	.	.	.
=83	=83	=83	=83	=83	=83	=83	=83	=83	=83	=83	=83	=83	=83	=83	=83	=83
8D/L	6	.	16b/LL	.	16b/LL	.	8D\	Spi-	8d\	Spi-	8f#\	Spi-	8b\	Spi-	4f#/	4ff#\
.	.	.	16f#/	.	16f#/	.	.	.	.	.	.	.	.	.	.	.
8AA#X/	6 5	.	16cc#/	.	16cc#/	.	8A#X\	-ri-	8e\	-ri-	8f#\	-ri-	8cc#\	-ri-	.	.
.	.	.	16f#/JJ	.	16f#/JJ	.	.	.	.	.	.	.	.	.	.	.
!	!	!	!LO:LB:g=original	!	!	!	!	!	!	!	!	!	!	!	!	!
.	.	.	8qee/	.	8qee/	.	.	.	.	.	.	.	.	.	.	.
8BB/J	.	.	8dd\L	.	8dd\L	.	8B\	-tus	8d\	-tus	8f#\	-tus	8dd\	-tus	8f#/	8ff#\
!LO:TX:b:t=Verte	!	!	!	!	!	!	!	!	!	!	!	!	!	!	!	!
8r	.	.	16cc#\L	.	16cc#\L	.	8r	.	8r	.	8r	.	8r	.	8r	8r
.	.	.	16b\JJ	.	16b\JJ	.	.	.	.	.	.	.	.	.	.	.
!LO:PB:g=original	!	!	!	!	!	!	!	!	!	!	!	!	!	!	!	!
=84	=84	=84	=84	=84	=84	=84	=84	=84	=84	=84	=84	=84	=84	=84	=84	=84
8r	.	.	4.g#X/	.	4.g#X/	.	8r	.	8r	.	8r	.	8r	.	8r	8r
!LO:TX:t=P:problem= mixed beam	!	!	!	!	!	!	!	!	!	!	!	!	!	!	!	!
*	*	*	*	*	*	*	*	*	*	*ij	*	*ij	*	*	*	*
8EE/L	#	.	.	.	.	.	8E\	Spi-	8B\	Spi-	8e\	Spi-	8g#X\	Spi-	8ee\L	8dd\L
!	!	!	!	!	!	!	!LO:LB:g=original	!	!	!	!	!	!LO:LB:g=original	!	!	!
8E\	_	.	.	.	.	.	8E\	-ri-	8B\	-ri-	8e\	-ri-	8g#\	-ri-	8ee\	8dd\
8D\J	x	.	16f#/LL	.	16f#/LL	.	8D\	-tus	8B\	-tus	8e\	-tus	8g#\	-tus	8ee\J	8dd\J
*	*	*	*	*	*	*	*	*	*	*Xij	*	*Xij	*	*	*	*
.	.	.	16g#/JJ	.	16g#/JJ	.	.	.	.	.	.	.	.	.	.	.
!	!	!	!	!	!	!	!	!	!LO:LB:g=original	!	!	!	!	!	!	!
=85	=85	=85	=85	=85	=85	=85	=85	=85	=85	=85	=85	=85	=85	=85	=85	=85
8C#/L	6	.	16an/LL	.	16a/LL	.	8C#\L	e-	8c#\L	e-	4e\	e-	8an\L	e-	4ee\	4dd\
.	.	.	16e/	.	16e/	.	.	.	.	.	.	.	.	.	.	.
8GG#X/	6 5	.	16b/	.	16b/	.	8G#X\J	.	8d\J	.	.	.	8b\J	.	.	.
.	.	.	16e/JJ	.	16e/JJ	.	.	.	.	.	.	.	.	.	.	.
.	.	.	8qdd/	.	8qdd/	.	.	.	.	.	.	.	.	.	.	.
8AA/J	.	.	8cc#\L	.	8cc#\L	.	8A\	-jus	8c#\	-jus	8e\	-jus	8cc#\	-jus	8a/	8dd\
8r	.	.	16b\L	.	16b\L	.	8r	.	8r	.	8r	.	8r	.	8r	8r
.	.	.	16a\JJ	.	16a\JJ	.	.	.	.	.	.	.	.	.	.	.
!	!	!	!	!	!	!	!	!	!	!	!LO:LB:g=original	!	!	!	!	!
=86	=86	=86	=86	=86	=86	=86	=86	=86	=86	=86	=86	=86	=86	=86	=86	=86
!	!	!	!LO:TX:t=P:problem= mixed beam	!	!	!	!	!	!	!	!	!	!	!	!	!
8r	.	.	8dd\L	.	4dd\	.	8r	.	8r	.	8r	.	8r	.	2r	2r
8D\L	5 3	.	8f#/	.	.	.	8D\	&	8A\	&	8f#\	&	8dd\	&	.	.
8E\	6\ 3	.	8g/	.	16dd\LL	.	8E\	flu-	8A\	flu-	8g\	flu-	8cc#\	flu-	.	.
.	.	.	.	.	16ccn\	.	.	.	.	.	.	.	.	.	.	.
8F#\J	5n 3	.	8a/J	.	16b\	.	8F#\	-ent	8d\	-ent	8a\	-ent	8ccn\	-ent	.	.
.	.	.	.	.	16cc\JJ	.	.	.	.	.	.	.	.	.	.	.
!	!	!	!	!	!	!	!	!	!	!	!	!	!	!	!LO:PB:g=original	!LO:LB:g=original
=87	=87	=87	=87	=87	=87	=87	=87	=87	=87	=87	=87	=87	=87	=87	=87	=87
8G\L	6\ 3	.	8g/L	.	16cc#\LL	.	8G\L	a-	8B\L	a-	4g\	a-	8b\L	a-	4r	4r
.	.	.	.	.	16b\	.	.	.	.	.	.	.	.	.	.	.
8E\	.	.	8g/	.	16b\	.	8E\J	.	8A\J	.	.	.	8cc#X\J	.	.	.
.	6	.	.	.	16cc#X\JJ	.	.	.	.	.	.	.	.	.	.	.
8F#\	.	.	8a/	.	16cc#\LL	.	8F#\	-quae	8A\	-quae	8f#\	-quae	8dd\	-quae	8r	8r
.	.	.	.	.	16dd\	.	.	.	.	.	.	.	.	.	.	.
*	*	*	*	*	*	*	*	*	*	*ij	*	*ij	*	*	*	*
8D\J	.	.	8a/J	.	16ee\	.	8D\	&	8A\	&	8a\	&	8ff#\	&	8dd\	8ff#\
.	.	.	.	.	16ff#\JJ	.	.	.	.	.	.	.	.	.	.	.
!	!	!	!	!	!LO:LB:g=original	!	!	!	!	!	!	!	!	!	!	!
=88	=88	=88	=88	=88	=88	=88	=88	=88	=88	=88	=88	=88	=88	=88	=88	=88
!LO:TX:t=P:problem= mixed beam	!	!	!	!	!	!	!	!	!	!	!	!	!	!	!	!
8G\L	6	.	8b/L	.	16ff#\LL	.	8G\	flu-	8B\	flu-	8g\	flu-	8ee\	flu-	4ee\	4gg\
.	_	.	.	.	16ee\	.	.	.	.	.	.	.	.	.	.	.
8G\	.	.	8g/	.	16gg\	.	8G\	-ent	8B\	-ent	8g\	-ent	8ee\	-ent	.	.
.	.	.	.	.	16ee\JJ	.	.	.	.	.	.	.	.	.	.	.
!	!	!	!	!	!	!	!LO:TX:t=P:problem= mixed beam	!	!	!	!	!	!	!	!	!
8A\	4	.	8f#/	.	8dd\L	.	8A\L	ag-	4A\	a-	8f#\L	a-	8dd\L	a-	8dd\L	8ff#\L
8AA/J	3	.	8e/J	.	8cc#\J	.	8AA/J	-aq-	.	.	8e\J	.	8cc#\J	.	8a\J	8ee\J
!	!	!	!LO:LB:g=original	!	!	!	!LO:LB:g=original	!	!	!	!	!	!LO:LB:g=original	!	!	!
=89	=89	=89	=89	=89	=89	=89	=89	=89	=89	=89	=89	=89	=89	=89	=89	=89
!LO:TX:a:t=Solo&colon;	!	!	!	!	!LO:TX:rj:a:t=Solo&colon;	!	!	!	!	!	!	!	!	!	!	!
4D\	.	.	4f#/	.	8dd\L	.	4D\	-uae	4A\	-quae	4f#\	-quae	4dd\	-quae	4f#/	4dd\
*	*	*	*	*	*	*	*	*	*	*Xij	*	*Xij	*	*	*	*
.	.	.	.	.	16ff#\L	.	.	.	.	.	.	.	.	.	.	.
.	.	.	.	.	16ee\JJ	.	.	.	.	.	.	.	.	.	.	.
!	!	!	!	!	!	!	!	!	!	!	!LO:TX:b:t=Verte Solo	!	!	!	!	!
8r	.	.	8r	.	8dd\L	.	4r	.	4r	.	4r	.	4r	.	4r	4r
!	!	!	!LO:TX:a:t=Solo&colon;	!	!	!	!	!	!	!	!	!	!	!	!	!
8F#\	6 5	.	8a/	.	8dd\J	.	.	.	.	.	.	.	.	.	.	.
!	!	!	!	!	!	!	!	!	!LO:LB:g=original	!	!	!	!	!	!	!
=90	=90	=90	=90	=90	=90	=90	=90	=90	=90	=90	=90	=90	=90	=90	=90	=90
4G\	5	.	4b\	.	8dd#X\	.	0r	.	1r	.	1r	.	0r	.	0r	0r
.	6 3	.	.	.	4ee\	.	.	.	.	.	.	.	.	.	.	.
4A\	5	.	4cc#\	.	.	.	.	.	.	.	.	.	.	.	.	.
.	6 3	.	.	.	[<8ff#\	.	.	.	.	.	.	.	.	.	.	.
!LO:LB:g=original	!	!	!	!	!	!	!	!	!	!	!	!	!	!	!	!
=91	=91	=91	=91	=91	=91	=91	=91	=91	=91	=91	=91	=91	=91	=91	=91	=91
4B\	5 3	.	4dd\	.	8ff#\]	.	.	.	.	.	.	.	.	.	.	.
.	6	.	.	.	4gg\	.	.	.	.	.	.	.	.	.	.	.
4G\	6 3	.	4b\	.	.	.	.	.	.	.	.	.	.	.	.	.
.	.	.	.	.	8ee\	.	.	.	.	.	.	.	.	.	.	.
=92	=92	=92	=92	=92	=92	=92	=92	=92	=92	=92	=92	=92	=92	=92	=92	=92
!LO:TX:t=P:problem= mixed beam	!	!	!	!	!	!	!	!	!	!	!LO:TX:b:t=Verte Solo	!	!	!	!	!
8A\L	4	.	8.f#/L	.	8.dd\L	.	.	.	2r	.	2r	.	.	.	.	.
8AA/	.	.	.	.	.	.	.	.	.	.	.	.	.	.	.	.
.	.	.	32e/LL	.	32cc#\LL	.	.	.	.	.	.	.	.	.	.	.
.	.	.	32f#/JJJ	.	32dd\JJJ	.	.	.	.	.	.	.	.	.	.	.
8A\J	3	.	8e/	.	8cc#\	.	.	.	.	.	.	.	.	.	.	.
8r	.	.	8r	.	8r	.	.	.	.	.	.	.	.	.	.	.
!	!	!	!	!	!	!	!	!	!	!	!LO:PB:g=original	!	!	!	!	!
=93	=93	=93	=93	=93	=93	=93	=93	=93	=93	=93	=93	=93	=93	=93	=93	=93
!LO:TX:t=P:problem= mixed beam	!	!LO:DY:rj	!	!LO:DY:a:t=p&colon;	!	!LO:DY:a:t=p&colon;	!	!	!LO:TX:a:t=Solo&colon;	!	!LO:TX:a:t=Solo&colon;	!	!	!	!	!
8D\L	.	p	4.dd\	p	4.ff#\	p	.	.	4.d\	qui	4.f#\	qui	.	.	.	.
8F#\	.	.	.	.	.	.	.	.	.	.	.	.	.	.	.	.
8A\	4	.	.	.	.	.	.	.	.	.	.	.	.	.	.	.
8AA/J	3	.	8cc#\	.	8ee\	.	.	.	8c#\	an-	8e\	an	.	.	.	.
=94	=94	=94	=94	=94	=94	=94	=94	=94	=94	=94	=94	=94	=94	=94	=94	=94
4D\	.	.	16dd\LL	.	(16ff#\LL	.	0r	.	16d\LL	-nun-	16f#\LL	nun-	0r	.	0r	0r
.	.	.	16cc#\	.	16ee\	.	.	.	16c#\JJ	.	16e\JJ	.	.	.	.	.
.	.	.	16dd\	.	16ff#\)	.	.	.	16d\LL	-ti-	16f#\LL	-ti-	.	.	.	.
.	.	.	16ee\JJ	.	16gg\JJ	.	.	.	16e\JJ	.	16g\JJ	.	.	.	.	.
8r	.	.	8ff#\L	.	8aa\L	.	.	.	8f#\	-at	8a\	-at	.	.	.	.
8F#\	6	.	8dd\J	.	8ff#\J	.	.	.	8d\	Ver-	8f#\	Ver-	.	.	.	.
!	!	!	!	!	!LO:LB:g=original	!	!	!	!	!	!	!	!	!	!	!
=95	=95	=95	=95	=95	=95	=95	=95	=95	=95	=95	=95	=95	=95	=95	=95	=95
4G\	6 5	.	8ee\	.	8gg\	.	.	.	8e\	.	8g\	.	.	.	.	.
.	.	.	4dd\	.	4ff#\	.	.	.	4d\	.	4f#\	.	.	.	.	.
4A\	4	.	.	.	.	.	.	.	.	.	.	.	.	.	.	.
.	3	.	8cc#\	.	8ee\	.	.	.	8c#\	.	8e\	.	.	.	.	.
!	!	!	!LO:LB:g=original	!	!	!	!	!	!	!	!	!	!	!	!	!
=96	=96	=96	=96	=96	=96	=96	=96	=96	=96	=96	=96	=96	=96	=96	=96	=96
4D\	.	.	16dd\LL	.	16ff#\LL	.	.	.	16d\LL	.	16f#\LL	.	.	.	.	.
.	.	.	16cc#\	.	16ee\	.	.	.	16c#\JJ	.	16e\JJ	.	.	.	.	.
.	.	.	16dd\	.	16ff#\	.	.	.	16d\LL	-bum	16f#\LL	-bum	.	.	.	.
.	.	.	16ee\JJ	.	16gg\JJ	.	.	.	16e\JJ	.	16g\JJ	.	.	.	.	.
8r	.	.	8ff#\L	.	8aa\L	.	.	.	8f#\	Su-	8a\	Su-	.	.	.	.
8F#\	6	.	8dd\J	.	8ff#\J	.	.	.	8d\	-um	8f#\	-um	.	.	.	.
!	!	!	!	!	!	!	!	!	!LO:LB:g=original	!	!LO:LB:g=original	!	!	!	!	!
=97	=97	=97	=97	=97	=97	=97	=97	=97	=97	=97	=97	=97	=97	=97	=97	=97
4G\	6 5	.	8ee\	.	8gg\	.	.	.	8e\	Ja-	8g\	Ja-	.	.	.	.
.	.	.	4dd\	.	4ff#\	.	.	.	4d\	.	4f#\	.	.	.	.	.
4A\	4	.	.	.	.	.	.	.	.	.	.	.	.	.	.	.
.	3	.	8cc#\	.	8ee\	.	.	.	8c#\	.	8e\	.	.	.	.	.
=98	=98	=98	=98	=98	=98	=98	=98	=98	=98	=98	=98	=98	=98	=98	=98	=98
8D\L	.	.	4dd\	.	4ff#\	.	0r	.	4d\	-cob	4f#\	-cob	0r	.	0r	0r
8d\	.	.	.	.	.	.	.	.	.	.	.	.	.	.	.	.
8D\J	.	.	8r	.	8r	.	.	.	8r	.	8r	.	.	.	.	.
8r	.	.	8ff#\	.	8aa\	.	.	.	8f#\	Juſ-	8a\	Juſ-	.	.	.	.
!LO:LB:g=original	!	!	!	!	!	!	!	!	!	!	!	!	!	!	!	!
=99	=99	=99	=99	=99	=99	=99	=99	=99	=99	=99	=99	=99	=99	=99	=99	=99
8r	.	.	4.ff#\	.	4.aa\	.	.	.	4.f#\	-ti-	4.a\	-ti-	.	.	.	.
8D\L	.	.	.	.	.	.	.	.	.	.	.	.	.	.	.	.
8d\	.	.	.	.	.	.	.	.	.	.	.	.	.	.	.	.
8D\J	.	.	16ee\LL	.	16gg\LL	.	.	.	16e\LL	-ti-	16g\LL	-ti-	.	.	.	.
.	.	.	16ff#\JJ	.	16aa\JJ	.	.	.	16f#\JJ	.	16a\JJ	.	.	.	.	.
=100	=100	=100	=100	=100	=100	=100	=100	=100	=100	=100	=100	=100	=100	=100	=100	=100
4.G\	6	.	8gg\L	.	8bb\L	.	.	.	8g\L	-as	8b\L	-as	.	.	.	.
.	_	.	8ff#\	.	8aa\	.	.	.	8f#\J	.	8a\J	.	.	.	.	.
.	.	.	8ee\	.	8gg\	.	.	.	8e\	&	8g\	&	.	.	.	.
8G#X\	5	.	8dd\J	.	8ff#\J	.	.	.	8d\	Ju-	8f#\	Ju-	.	.	.	.
=101	=101	=101	=101	=101	=101	=101	=101	=101	=101	=101	=101	=101	=101	=101	=101	=101
4A\	4	.	8.dd\L	.	8.ff#\L	.	.	.	8.d\	-di-	8.f#\	-di-	.	.	.	.
.	.	.	32cc#\LL	.	32ee\LL	.	.	.	16d\	-ci-	16f#\	-ci-	.	.	.	.
.	.	.	32dd\JJJ	.	32ff#\JJJ	.	.	.	.	.	.	.	.	.	.	.
4AA/	3	.	8cc#\L	.	8ee\L	.	.	.	8c#\	-a	8e\	-a	.	.	.	.
!	!	!	!	!	!	!	!	!	!	!	!LO:LB:g=original	!	!	!	!	!
.	.	.	8a\J	.	8a\J	.	.	.	8c#\	&	8e\	&	.	.	.	.
!	!	!	!	!	!LO:LB:g=original	!	!	!	!LO:LB:g=original	!	!	!	!	!	!	!
=102	=102	=102	=102	=102	=102	=102	=102	=102	=102	=102	=102	=102	=102	=102	=102	=102
8r	.	.	4.ee\	.	4.gg\	.	0r	.	4.e\	Ju-	(4.g\	Ju-	0r	.	0r	0r
8c#\L	.	.	.	.	.	.	.	.	.	.	.	.	.	.	.	.
8c#\	.	.	.	.	.	.	.	.	.	.	.	.	.	.	.	.
8c#\J	.	.	16dd\LL	.	16ff#\LL	.	.	.	16d\LL	.	16f#\LL)	.	.	.	.	.
.	.	.	16ee\JJ	.	16gg\JJ	.	.	.	16e\JJ	.	16g\JJ	.	.	.	.	.
!	!	!	!LO:LB:g=original	!	!	!	!	!	!	!	!	!	!	!	!	!
=103	=103	=103	=103	=103	=103	=103	=103	=103	=103	=103	=103	=103	=103	=103	=103	=103
4d\	.	.	8.ff#\L	.	8.aa\L	.	.	.	8.f#\	-di-	8.a\	-di-	.	.	.	.
.	.	.	16ee\Jk	.	16gg\Jk	.	.	.	16e\	-ci-	16g\	-ci-	.	.	.	.
4D\	.	.	8dd\L	.	8ff#\L	.	.	.	8d\	-a	8f#\	-a	.	.	.	.
.	.	.	8ff#\J	.	8aa\J	.	.	.	8f#\	Su-	8a\	Su-	.	.	.	.
=104	=104	=104	=104	=104	=104	=104	=104	=104	=104	=104	=104	=104	=104	=104	=104	=104
8G\L	.	.	4gg\	.	4bb\	.	.	.	4g\	.	4b\	.	.	.	.	.
8E\	.	.	.	.	.	.	.	.	.	.	.	.	.	.	.	.
8F#\	.	.	8ff#\L	.	8aa\L	.	.	.	8f#\L	-a	8a\L	-a	.	.	.	.
8G\J	6	.	8ee\J	.	8gg\J	.	.	.	8e\J	.	8g\J	.	.	.	.	.
=105	=105	=105	=105	=105	=105	=105	=105	=105	=105	=105	=105	=105	=105	=105	=105	=105
!LO:TX:t=P:problem= mixed beam	!	!	!	!	!	!	!	!	!	!	!	!	!	!	!	!
8A\L	4	.	4dd\	.	4ff#\	.	.	.	4d\	I-	4f#\	I-	.	.	.	.
8A\	.	.	.	.	.	.	.	.	.	.	.	.	.	.	.	.
8AA/	3	.	4cc#\	.	4ee\	.	.	.	4c#\	-sra-	4e\	-sra-	.	.	.	.
8AA/J	.	.	.	.	.	.	.	.	.	.	.	.	.	.	.	.
=106	=106	=106	=106	=106	=106	=106	=106	=106	=106	=106	=106	=106	=106	=106	=106	=106
!	!	!	!	!	!	!LO:DY:a:t=f&colon;	!	!	!	!	!	!	!	!	!	!
4D\	.	.	4dd\	.	(8.dd\L	f	0r	.	4d\	-el	4f#\	-el	0r	.	1r	1r
.	.	.	.	.	16ff#\Jk)	.	.	.	.	.	.	.	.	.	.	.
4r	.	.	4r	.	8aa'\L	.	.	.	4r	.	4r	.	.	.	.	.
.	.	.	.	.	8aa'\J	.	.	.	.	.	.	.	.	.	.	.
!LO:LB:g=original	!	!	!	!	!	!	!	!	!	!	!	!	!	!	!	!
=107	=107	=107	=107	=107	=107	=107	=107	=107	=107	=107	=107	=107	=107	=107	=107	=107
!	!	!	!LO:TX:a:t=Solo&colon;	!	!	!	!	!	!	!	!	!	!	!	!	!
8r	.	.	8r	.	4aa\	.	.	.	1r	.	1r	.	.	.	.	.
16D\LL	.	.	16f#/LL	.	.	.	.	.	.	.	.	.	.	.	.	.
16C#\JJ	.	.	16g/JJ	.	.	.	.	.	.	.	.	.	.	.	.	.
8D\L	.	.	8a/L	.	16gg\LL	.	.	.	.	.	.	.	.	.	.	.
.	.	.	.	.	16ff#\	.	.	.	.	.	.	.	.	.	.	.
8F#\J	6	.	8a/J	.	16ee\	.	.	.	.	.	.	.	.	.	.	.
.	.	.	.	.	16dd\JJ	.	.	.	.	.	.	.	.	.	.	.
=108	=108	=108	=108	=108	=108	=108	=108	=108	=108	=108	=108	=108	=108	=108	=108	=108
8A\L	3	.	8.e/L	.	8.cc#\L	.	.	.	.	.	.	.	.	.	4r	4r
8G\	_	.	.	.	.	.	.	.	.	.	.	.	.	.	.	.
.	.	.	32d/LL	.	32b\LL	.	.	.	.	.	.	.	.	.	.	.
.	.	.	32e/JJJ	.	32cc#\JJJ	.	.	.	.	.	.	.	.	.	.	.
8F#\	6	.	16f#/LL	.	16dd\LL	.	.	.	.	.	.	.	.	.	8r	8r
.	.	.	16g/	.	16ee\	.	.	.	.	.	.	.	.	.	.	.
8D\J	.	.	16a/	.	16ff#\	.	.	.	.	.	.	.	.	.	8dd\	8ff#\
.	.	.	16f#/JJ	.	16dd\JJ	.	.	.	.	.	.	.	.	.	.	.
=109	=109	=109	=109	=109	=109	=109	=109	=109	=109	=109	=109	=109	=109	=109	=109	=109
!LO:TX:t=P:problem= mixed beam	!	!	!	!	!	!	!	!	!	!	!	!	!	!	!	!
8G\L	6	.	8g/L	.	16ee\LL	.	.	.	2r	.	2r	.	.	.	4ee\	4gg\
.	_	.	.	.	16gg\	.	.	.	.	.	.	.	.	.	.	.
8G\	.	.	16b/L	.	16b\	.	.	.	.	.	.	.	.	.	.	.
.	x	.	16g/JJ	.	16ee\JJ	.	.	.	.	.	.	.	.	.	.	.
!	!	!	!LO:LB:g=original	!	!LO:LB:g=original	!	!	!	!	!	!	!	!	!	!	!
8A\	4	.	16g/LL	.	16ee\LL	.	.	.	.	.	.	.	.	.	8dd\L	8ff#\L
.	.	.	16f#/	.	16dd\	.	.	.	.	.	.	.	.	.	.	.
8AA/J	3	.	16f#/	.	16dd\	.	.	.	.	.	.	.	.	.	8a\J	8ee\J
.	.	.	16e/JJ	.	16cc#\JJ	.	.	.	.	.	.	.	.	.	.	.
!	!	!	!	!	!	!	!	!	!LO:LB:g=original	!	!LO:LB:g=original	!	!	!	!	!
=110	=110	=110	=110	=110	=110	=110	=110	=110	=110	=110	=110	=110	=110	=110	=110	=110
*tremolo	*	*	*	*	*	*	*	*	*	*	*	*	*	*	*	*
!LO:TX:a:t=tutti	!	!	!LO:TX:t=P:problem= mixed beam	!LO:DY:a:t=f&colon;	!	!	!	!	!	!	!	!	!	!	!	!
8D\L	.	.	8f#/L	f	8dd\L	.	4D\	Non	4d\	non	4a\	non	4ff#\	Non	4f#/	2dd\
8D\	.	.	8dd\	.	(32ff#\LL	.	.	.	.	.	.	.	.	.	.	.
.	.	.	.	.	32ee\	.	.	.	.	.	.	.	.	.	.	.
.	.	.	.	.	32ff#\	.	.	.	.	.	.	.	.	.	.	.
.	.	.	.	.	32gg\JJJ)	.	.	.	.	.	.	.	.	.	.	.
8D\	.	.	8ff#\	.	16aa\LL	.	8D\	fe-	8d\	fe-	8a\	fe-	8ff#\	fe-	4d/	.
.	.	.	.	.	16bb\	.	.	.	.	.	.	.	.	.	.	.
8D\J	.	.	8ff#\J	.	16ccc#\	.	8D\	-cit	8d\	-cit	8a\	-cit	8ff#\	-cit	.	.
.	.	.	.	.	16ddd\JJ	.	.	.	.	.	.	.	.	.	.	.
*Xtremolo	*	*	*	*	*	*	*	*	*	*	*	*	*	*	*	*
=111	=111	=111	=111	=111	=111	=111	=111	=111	=111	=111	=111	=111	=111	=111	=111	=111
8D\L	6 4	.	8gg\L	.	8.bb\L	.	4D\	la-	4d\	ta-	4b\	ta-	4gg\	ta-	2d/	2dd\
8D\	_ _	.	8gg\	.	.	.	.	.	.	.	.	.	.	.	.	.
.	.	.	.	.	32aa\LL	.	.	.	.	.	.	.	.	.	.	.
.	.	.	.	.	32bb\JJJ	.	.	.	.	.	.	.	.	.	.	.
8D\	5 3	.	8ff#\	.	16aa\LL	.	8D\	-ti-	8d\	-li-	8a\	-li-	8ff#\	-li-	.	.
.	.	.	.	.	16bb\	.	.	.	.	.	.	.	.	.	.	.
8D\J	.	.	8ff#\J	.	16ccc#\	.	8D\	-ter	8A\	-ter	8a\	-ter	8ff#\	-ter	.	.
.	.	.	.	.	16ddd\JJ	.	.	.	.	.	.	.	.	.	.	.
=112	=112	=112	=112	=112	=112	=112	=112	=112	=112	=112	=112	=112	=112	=112	=112	=112
*tremolo	*	*	*	*	*	*	*	*	*	*	*	*	*	*	*	*
8C#/L	6 5	.	8ee\L	.	(8.aa\L	.	8C#/	o-	8A\	o-	8g\	o-	8ee\	o-	4a/	4ee\
8C#/	.	.	8ee\	.	.	.	8C#/	-mni	8A\	-mni	8g\	-mni-	8ee\	-mni	.	.
.	.	.	.	.	16gg\Jk)	.	.	.	.	.	.	.	.	.	.	.
8C#/	.	.	8ee\	.	16ee\LL	.	8C#/	Na-	8A\	na-	8g\	-na-	8ee\	na-	4ee\	4gg\
.	.	.	.	.	16ff#\	.	.	.	.	.	.	.	.	.	.	.
8C#/J	.	.	8ee\J	.	16gg\	.	8C#/	-ti-	8A\	-ti-	8g\	-ti-	8ee\	-ti-	.	.
.	.	.	.	.	16aa\JJ	.	.	.	.	.	.	.	.	.	.	.
*Xtremolo	*	*	*	*	*	*	*	*	*	*	*	*	*	*	*	*
!	!	!	!	!	!	!	!LO:LB:g=original	!	!	!	!	!	!	!	!LO:LB:g=original	!LO:LB:g=original
=113	=113	=113	=113	=113	=113	=113	=113	=113	=113	=113	=113	=113	=113	=113	=113	=113
!LO:TX:t=P:problem= mixed beam	!	!	!	!	!	!	!	!	!	!	!	!	!	!	!	!
8D\L	4	.	8.ee\L	.	8.gg\L	.	4D\	-o-	4A\	-o-	4g\	-o-	4ee\	-o-	4ee\	4gg\
8D\	.	.	.	.	.	.	.	.	.	.	.	.	.	.	.	.
.	.	.	32dd\LL	.	32ff#\LL	.	.	.	.	.	.	.	.	.	.	.
.	.	.	32ee\JJJ	.	32gg\JJJ	.	.	.	.	.	.	.	.	.	.	.
8DD/J	3	.	8dd\	.	8ff#\	.	8D\	-ni	8A\	-ni	8f#\	-ni	8dd\	-ni	8dd\	8ff#\
8r	.	.	8r	.	8r	.	8r	.	8r	.	8r	.	8r	.	8r	8r
!	!	!	!	!	!	!	!	!	!	!	!	!	!LO:LB:g=original	!	!	!
=114	=114	=114	=114	=114	=114	=114	=114	=114	=114	=114	=114	=114	=114	=114	=114	=114
!	!	!	!LO:TX:a:t=Solo&colon;	!	!LO:TX:rj:a:t=Solo&colon;	!	!	!	!	!	!	!	!	!	!	!
0r	.	.	2B-X/	.	(8.ddd\L	.	1r	.	1r	.	1r	.	1r	.	0r	0r
.	.	.	.	.	16bb-X\Jk)	.	.	.	.	.	.	.	.	.	.	.
.	.	.	.	.	8gg#X'\L	.	.	.	.	.	.	.	.	.	.	.
.	.	.	.	.	8gg#'\J	.	.	.	.	.	.	.	.	.	.	.
!	!	!	!	!	!LO:LB:g=original	!	!	!	!	!	!	!	!	!	!	!
=115	=115	=115	=115	=115	=115	=115	=115	=115	=115	=115	=115	=115	=115	=115	=115	=115
.	.	.	2A/	.	(8.aa\L	.	.	.	.	.	.	.	.	.	.	.
.	.	.	.	.	16ccc#\Jk)	.	.	.	.	.	.	.	.	.	.	.
.	.	.	.	.	8ee'\L	.	.	.	.	.	.	.	.	.	.	.
.	.	.	.	.	8ee'\J	.	.	.	.	.	.	.	.	.	.	.
!	!	!	!	!	!	!	!	!	!	!	!LO:LB:g=original	!	!	!	!	!
=116	=116	=116	=116	=116	=116	=116	=116	=116	=116	=116	=116	=116	=116	=116	=116	=116
!	!	!	!	!	!	!	!	!	!	!	!	!	!LO:TX:a:t=Solo&colon;	!	!	!
.	.	.	2B-X/	.	(8.ddd\L	.	8B-X\	&	8B\	&	8b\	&	8b-X\	&	.	.
.	.	.	.	.	.	.	8B-\	Ju-	8B\	Ju-	8b\	Ju-	8b-\	Ju-	.	.
.	.	.	.	.	16bb-X\Jk)	.	.	.	.	.	.	.	.	.	.	.
.	.	.	.	.	8gg#X'\L	.	8.B-\	-di-	8.B\	-di-	8.b\	-di-	8.b-\	-di-	.	.
.	.	.	.	.	8gg#'\J	.	.	.	.	.	.	.	.	.	.	.
.	.	.	.	.	.	.	16B-\	-ci-	16B\	-ci-	16b\	-ci-	16b-\	-ci-	.	.
!	!	!	!LO:LB:g=original	!	!	!	!	!	!	!	!	!	!	!	!	!
=117	=117	=117	=117	=117	=117	=117	=117	=117	=117	=117	=117	=117	=117	=117	=117	=117
.	.	.	2A/	.	(8.aa\L	.	4A\	-a	4A\	-a	4a\	-a	4a\	-a	.	.
.	.	.	.	.	16ccc#\Jk)	.	.	.	.	.	.	.	.	.	.	.
.	.	.	.	.	8ee'\	.	4r	.	4r	.	4r	.	4r	.	.	.
.	.	.	.	.	8r	.	.	.	.	.	.	.	.	.	.	.
=118	=118	=118	=118	=118	=118	=118	=118	=118	=118	=118	=118	=118	=118	=118	=118	=118
0r	.	.	2B-X/	.	(8.ddd\L	.	1r	.	1r	.	1r	.	1r	.	0r	0r
.	.	.	.	.	16bb-X\Jk)	.	.	.	.	.	.	.	.	.	.	.
.	.	.	.	.	8gg#X'\L	.	.	.	.	.	.	.	.	.	.	.
.	.	.	.	.	8gg#'\J	.	.	.	.	.	.	.	.	.	.	.
=119	=119	=119	=119	=119	=119	=119	=119	=119	=119	=119	=119	=119	=119	=119	=119	=119
.	.	.	2A/	.	(8.aa\L	.	.	.	.	.	.	.	.	.	.	.
.	.	.	.	.	16ccc#\Jk)	.	.	.	.	.	.	.	.	.	.	.
.	.	.	.	.	8ee'\L	.	.	.	.	.	.	.	.	.	.	.
.	.	.	.	.	8ee'\J	.	.	.	.	.	.	.	.	.	.	.
=120	=120	=120	=120	=120	=120	=120	=120	=120	=120	=120	=120	=120	=120	=120	=120	=120
*	*	*	*	*	*	*	*2\right	*	*2\right	*	*	*	*	*	*	*
.	.	.	2B-X/	.	(8.ddd\L	.	2B-X\	Su-	2B-X\	Su-	2b-X\	Su-	2b-X\	Su-	.	.
.	.	.	.	.	16bb-X\Jk)	.	.	.	.	.	.	.	.	.	.	.
.	.	.	.	.	8gg#X'\L	.	.	.	.	.	.	.	.	.	.	.
.	.	.	.	.	8gg#'\J	.	.	.	.	.	.	.	.	.	.	.
=121	=121	=121	=121	=121	=121	=121	=121	=121	=121	=121	=121	=121	=121	=121	=121	=121
.	.	.	2A/	.	(8.aa\L	.	4A\	-a	4A\	-a	4a\	-a	4a\	-a	.	.
.	.	.	.	.	16ccc#\Jk)	.	.	.	.	.	.	.	.	.	.	.
.	.	.	.	.	8ee'\	.	4r	.	4r	.	4r	.	4r	.	.	.
.	.	.	.	.	8r	.	.	.	.	.	.	.	.	.	.	.
!LO:LB:g=original	!	!	!	!	!LO:LB:g=original	!	!LO:LB:g=original	!	!	!	!	!	!	!	!	!
=122	=122	=122	=122	=122	=122	=122	=122	=122	=122	=122	=122	=122	=122	=122	=122	=122
!	!	!	!	!LO:DY:a:t=f&colon;	!	!LO:DY:a	!	!	!	!	!	!	!	!	!	!
8C#\L	3	.	8e/L	f	8ee\L	f	4r	.	4r	.	4r	.	4r	.	0r	0r
!	!	!	!LO:LO:TUP:b:t=klamra łukowa	!	!LO:LO:TUP:a:t=klamra łukowa	!	!	!	!	!	!	!	!	!	!	!
8D\	3	.	24f#/L	.	24ff#\L	.	.	.	.	.	.	.	.	.	.	.
.	.	.	24e/	.	24ee\	.	.	.	.	.	.	.	.	.	.	.
.	.	.	24f#/JJ	.	24ff#\JJ	.	.	.	.	.	.	.	.	.	.	.
8E\J	3	.	8g/	.	8gg\	.	8r	.	8r	.	8r	.	8r	.	.	.
8r	.	.	8r	.	8r	.	8c#\	non	8A\	non	8g\	non	8ee\	non	.	.
=123	=123	=123	=123	=123	=123	=123	=123	=123	=123	=123	=123	=123	=123	=123	=123	=123
8D\L	3	.	8f#/L	.	8ff#\L	.	4r	.	4r	.	4r	.	4r	.	.	.
!	!	!	!LO:LO:TUP:b:t=klamra łukowa	!	!LO:LO:TUP:a:t=klamra łukowa	!	!	!	!	!	!	!	!	!	!	!
8E\	3	.	24g/L	.	24gg\L	.	.	.	.	.	.	.	.	.	.	.
.	.	.	24f#/	.	24ff#\	.	.	.	.	.	.	.	.	.	.	.
.	.	.	24g/JJ	.	24gg\JJ	.	.	.	.	.	.	.	.	.	.	.
8F#\J	3	.	8a/	.	8aa\	.	8r	.	8r	.	8r	.	8r	.	.	.
!	!	!	!	!	!LO:TX:b:t=Verte	!	!	!	!	!	!	!	!	!	!	!
*	*	*	*	*	*	*	*	*	*	*ij	*	*ij	*	*ij	*	*
8r	.	.	8r	.	8r	.	8d\	{non}	8A\	non	8f#\	non	8dd\	non	.	.
*	*	*	*	*	*	*	*	*	*	*Xij	*	*Xij	*	*Xij	*	*
!	!	!	!	!	!LO:PB:g=original	!	!	!	!LO:LB:g=original	!	!LO:LB:g=original	!	!LO:LB:g=original	!	!	!
=124	=124	=124	=124	=124	=124	=124	=124	=124	=124	=124	=124	=124	=124	=124	=124	=124
8G\L	6 3	.	16b/LL	.	16bb\LL	.	8G\L	ma-	8B\L	ma-	8b\L	ma-	2ee\	ma-	.	.
.	.	.	(16g/	.	16gg\	.	.	.	.	.	.	.	.	.	.	.
8A\	.	.	(16f#/)	.	16ff#\	.	8A\	.	8c#\	.	8a\	.	.	.	.	.
.	.	.	16e/JJ)	.	16ee\JJ	.	.	.	.	.	.	.	.	.	.	.
8B\	.	.	(16e/LL	.	(16ee\LL	.	8B\	.	8B\	.	8g\	.	.	.	.	.
.	.	.	16d#X/)	.	16dd#X\)	.	.	.	.	.	.	.	.	.	.	.
8A\J	_ _	.	(16f#/	.	(16ff#\	.	8A\J	.	8c#\J	.	8a\J	.	.	.	.	.
.	.	.	16e/JJ)	.	16ee\JJ)	.	.	.	.	.	.	.	.	.	.	.
!	!	!	!LO:LB:g=original	!	!	!	!	!	!	!	!	!	!	!	!	!
=125	=125	=125	=125	=125	=125	=125	=125	=125	=125	=125	=125	=125	=125	=125	=125	=125
8G\L	.	.	16d#X/LL	.	(16dd#X\LL	.	8G\L	-ni-	8B\L	-ni-	8b\L	-ni-	4ee\	-ni-	.	.
.	.	.	(16e/	.	16ee\)	.	.	.	.	.	.	.	.	.	.	.
8A\	.	.	(16f#/)	.	(16ff#\	.	8A\J	.	8c#\J	.	8a\J	.	.	.	.	.
.	.	.	16e/JJ)	.	16ee\JJ)	.	.	.	.	.	.	.	.	.	.	.
8B\	x	.	(16e/LL	.	(16ee\LL	.	8B\L	-fes-	8B\L	-fes-	8g\L	-fes-	4ee\	-feſ-	.	.
.	.	.	16d#/)	.	16dd#\)	.	.	.	.	.	.	.	.	.	.	.
8A\J	.	.	(16f#/	.	(16ff#\	.	8A\J	.	8c#\J	.	8a\J	.	.	.	.	.
.	.	.	16e/JJ)	.	16ee\JJ)	.	.	.	.	.	.	.	.	.	.	.
=126	=126	=126	=126	=126	=126	=126	=126	=126	=126	=126	=126	=126	=126	=126	=126	=126
8G\L	6	.	(16e/LL	.	(16ee\LL	.	8G\L	-ta-	8B\L	-ta-	8b\L	-ta-	4dd\	-ta-	8r	8r
.	.	.	16dn/)	.	16ddn\)	.	.	.	.	.	.	.	.	.	.	.
8F#\	6	.	(16c#/	.	(16cc#\	.	8F#\J	.	8A\J	.	8a\J	.	.	.	8dd\L	8ff#\L
.	.	.	16d/JJ)	.	16dd\JJ)	.	.	.	.	.	.	.	.	.	.	.
8G\	6	.	(16f#/LL	.	(16ff#\LL	.	8G\L	-vit	4B\	-vit	8g\L	-vit	8ee\L	-vit	8ee\	8gg\
.	.	.	16e/)	.	16ee\)	.	.	.	.	.	.	.	.	.	.	.
8G#X\J	5	.	(16e/	.	(16ee\	.	8G#X\J	.	.	.	8f#\J	.	8dd\J	.	8dd\J	8ff#\J
.	.	.	16d/JJ)	.	16dd\JJ)	.	.	.	.	.	.	.	.	.	.	.
=127	=127	=127	=127	=127	=127	=127	=127	=127	=127	=127	=127	=127	=127	=127	=127	=127
8A\L	.	.	8e/L	.	8cc#\	.	8A\L	e-	8A\	e-	8e\L	e-	8cc#\	e-	8a\L	8ee\L
8B\	.	.	8f#/J	.	4dd\	.	8B\	.	4B\	.	8f#\J	.	4dd\	.	8dd\	8ff#\J
8Gn\	6 5	.	4e/	.	.	.	8Gn\	.	.	.	4e\	.	.	.	8dd\	4ee\
8A\J	.	.	.	.	8cc#\	.	8A\J	.	8A\	.	.	.	8cc#\	.	8a\J	.
!	!	!	!	!	!	!	!LO:LB:g=original	!	!	!	!	!	!	!	!	!
=128	=128	=128	=128	=128	=128	=128	=128	=128	=128	=128	=128	=128	=128	=128	=128	=128
!LO:TX:a:t=Solo&colon;	!	!	!LO:TX:a:t=Solo&colon;	!	!LO:TX:rj:a:t=Solo&colon;	!	!	!	!	!	!	!	!	!	!	!
4D\	.	.	8f#/	.	8dd\	.	4D\	-is	4A\	-is	4f#\	-jis	4dd\	-is	4f#/	4dd\
.	.	.	16r	.	16r	.	.	.	.	.	.	.	.	.	.	.
.	.	.	16f#/	.	16ff#\	.	.	.	.	.	.	.	.	.	.	.
!	!	!	!	!	!LO:LB:g=original	!	!	!	!	!	!	!	!	!	!	!
8r	.	.	16b/LL	.	(16bb\LL	.	4r	.	4r	.	4r	.	4r	.	4r	4r
.	.	.	(16a/	.	16aa\)	.	.	.	.	.	.	.	.	.	.	.
8D\	.	.	(16g/)	.	(16gg\	.	.	.	.	.	.	.	.	.	.	.
.	.	.	16f#/JJ)	.	16ff#\JJ)	.	.	.	.	.	.	.	.	.	.	.
!LO:LB:g=original	!	!	!	!	!	!	!	!	!	!	!	!	!	!	!	!
=129	=129	=129	=129	=129	=129	=129	=129	=129	=129	=129	=129	=129	=129	=129	=129	=129
8E\L	.	.	(16f#/LL	.	(16ff#\LL	.	0r	.	0r	.	1r	.	1r	.	1r	1r
.	.	.	16g/JJ)	.	16gg\JJ)	.	.	.	.	.	.	.	.	.	.	.
8E\J	.	.	16r	.	16r	.	.	.	.	.	.	.	.	.	.	.
.	.	.	16g/	.	16gg\	.	.	.	.	.	.	.	.	.	.	.
8r	.	.	(16a/LL	.	(16aa\LL	.	.	.	.	.	.	.	.	.	.	.
.	.	.	16g/)	.	16gg\)	.	.	.	.	.	.	.	.	.	.	.
8C#/	.	.	(16f#/	.	(16ff#\	.	.	.	.	.	.	.	.	.	.	.
.	.	.	16e/JJ)	.	16ee\JJ)	.	.	.	.	.	.	.	.	.	.	.
!	!	!	!LO:LB:g=original	!	!	!	!	!	!	!	!	!	!	!	!	!
=130	=130	=130	=130	=130	=130	=130	=130	=130	=130	=130	=130	=130	=130	=130	=130	=130
8D\L	.	.	(16e/LL	.	(16ee\LL	.	.	.	.	.	.	.	.	.	.	.
.	.	.	16f#/JJ)	.	16ff#\JJ)	.	.	.	.	.	.	.	.	.	.	.
8D\J	.	.	16r	.	16r	.	.	.	.	.	.	.	.	.	.	.
.	.	.	16f#/	.	16ff#\	.	.	.	.	.	.	.	.	.	.	.
8r	.	.	(16g/LL	.	(16gg\LL	.	.	.	.	.	.	.	.	.	.	.
.	.	.	16f#/)	.	16ff#\)	.	.	.	.	.	.	.	.	.	.	.
8B\	.	.	(16e/	.	(16ee\	.	.	.	.	.	.	.	.	.	.	.
.	.	.	16d/JJ)	.	16dd\JJ)	.	.	.	.	.	.	.	.	.	.	.
=131	=131	=131	=131	=131	=131	=131	=131	=131	=131	=131	=131	=131	=131	=131	=131	=131
!LO:TX:t=P:problem= mixed beam	!	!	!	!	!	!	!	!	!	!	!	!	!	!	!	!
8G\L	6	.	8.e/L	.	16ee\LL	.	.	.	.	.	2r	.	2r	.	8r	8r
.	_	.	.	.	16ff#\	.	.	.	.	.	.	.	.	.	.	.
8G\	.	.	.	.	16gg\	.	.	.	.	.	.	.	.	.	8ee\L	8gg\L
.	x	.	16g/Jk	.	16ee\JJ	.	.	.	.	.	.	.	.	.	.	.
8A\	4	.	16g/LL	.	16ee\LL	.	.	.	.	.	.	.	.	.	8dd\	8ff#\
.	.	.	16f#/	.	16dd\	.	.	.	.	.	.	.	.	.	.	.
8AA/J	3	.	16e/	.	16dd\	.	.	.	.	.	.	.	.	.	8a\J	8ee\J
.	.	.	16d/JJ	.	16cc#\JJ	.	.	.	.	.	.	.	.	.	.	.
!	!	!	!	!	!	!	!	!	!	!	!LO:LB:g=original	!	!	!	!	!
=132	=132	=132	=132	=132	=132	=132	=132	=132	=132	=132	=132	=132	=132	=132	=132	=132
!	!	!LO:DY:a:t=p&colon;	!	!LO:DY:a:t=p&colon;	!	!LO:DY:a:t=p&colon;	!	!	!	!	!	!	!LO:TX:a:t=Solo&colon;	!	!	!
4D\	.	p	8f#/L	p	8dd\L	p	.	.	.	.	8r	.	8r	.	4f#/	4dd\
!	!	!	!	!	!	!	!	!	!	!	!LO:TX:a:t=Solo&colon;	!	!	!	!	!
.	.	.	16f#/L	.	16dd\L	.	.	.	.	.	16f#\LL	glo-	16dd\LL	glo-	.	.
.	.	.	16e/JJ	.	16cc#\JJ	.	.	.	.	.	16e\JJ	.	16cc#\JJ	.	.	.
4r	.	.	8f#/L	.	8dd\L	.	.	.	.	.	8f#\	-ri-	8dd\	-ri-	4r	4r
.	.	.	8g/J	.	8ee\J	.	.	.	.	.	8g\	-a	8ee\	-a	.	.
!	!	!	!	!	!LO:LB:g=original	!	!	!	!	!	!	!	!LO:LB:g=original	!	!	!
=133	=133	=133	=133	=133	=133	=133	=133	=133	=133	=133	=133	=133	=133	=133	=133	=133
8r	.	.	4.a/	.	4.ff#\	.	0r	.	0r	.	4.a\	pat-	4.ff#\	pat-	0r	0r
8D\L	.	.	.	.	.	.	.	.	.	.	.	.	.	.	.	.
8d\	.	.	.	.	.	.	.	.	.	.	.	.	.	.	.	.
8D\J	.	.	16g/LL	.	16ee\LL	.	.	.	.	.	16g\LL	.	16ee\LL	.	.	.
.	.	.	16f#/JJ	.	16dd\JJ	.	.	.	.	.	16f#\JJ	.	16dd\JJ	.	.	.
=134	=134	=134	=134	=134	=134	=134	=134	=134	=134	=134	=134	=134	=134	=134	=134	=134
4A\	.	.	8e/L	.	8cc#\L	.	.	.	.	.	8e\	-ri	8cc#\	-ri	.	.
.	.	.	16e/L	.	16cc#\L	.	.	.	.	.	16e\LL	glo-	16cc#\LL	glo-	.	.
.	.	.	16d/JJ	.	16b\JJ	.	.	.	.	.	16d\JJ	.	16b\JJ	.	.	.
4r	.	.	8e/L	.	8cc#\L	.	.	.	.	.	8e\	-ri-	8cc#\	-ri-	.	.
.	.	.	8f#/J	.	8dd\J	.	.	.	.	.	8f#\	-a	8dd\	-a	.	.
=135	=135	=135	=135	=135	=135	=135	=135	=135	=135	=135	=135	=135	=135	=135	=135	=135
8r	.	.	4.g/	.	4.ee\	.	.	.	.	.	4.g\	fi-	4.ee\	fi-	.	.
!LO:TX:t=P:problem= mixed beam	!	!	!	!	!	!	!	!	!	!	!	!	!	!	!	!
8AA/L	.	.	.	.	.	.	.	.	.	.	.	.	.	.	.	.
8A\	.	.	.	.	.	.	.	.	.	.	.	.	.	.	.	.
8AA/J	.	.	16a/LL	.	16ff#\LL	.	.	.	.	.	16a\LL	-li-	16ff#\LL	-li-	.	.
.	.	.	16g/JJ	.	16ee\JJ	.	.	.	.	.	16g\JJ	.	16ee\JJ	.	.	.
!LO:LB:g=original	!	!	!LO:LB:g=original	!	!	!	!	!	!	!	!	!	!	!	!	!
=136	=136	=136	=136	=136	=136	=136	=136	=136	=136	=136	=136	=136	=136	=136	=136	=136
4D\	.	.	8f#/L	.	8dd\L	.	.	.	.	.	8f#\	-o	8dd\	-o	.	.
!	!	!	!	!	!	!	!	!	!	!	!LO:LB:g=original	!	!	!	!	!
.	.	.	8a/	.	8ff#\	.	.	.	.	.	8a\L	&	8ff#\L	&	.	.
8r	.	.	8g/	.	8ee\	.	.	.	.	.	8g\J	.	8ee\J	.	.	.
8F#\	6	.	8f#/J	.	8dd\J	.	.	.	.	.	8f#\	Spi-	8dd\	Spi-	.	.
=137	=137	=137	=137	=137	=137	=137	=137	=137	=137	=137	=137	=137	=137	=137	=137	=137
8G\L	6	.	4b/	.	4gg\	.	1r	.	1r	.	4b\	-ri-	4gg\	-ri-	1r	1r
16F#\L	_	.	.	.	.	.	.	.	.	.	.	.	.	.	.	.
16E\JJ	.	.	.	.	.	.	.	.	.	.	.	.	.	.	.	.
8F#\L	x	.	8a/L	.	8ff#\L	.	.	.	.	.	8a\	-tu-	8ff#\	-tu-	.	.
8G\J	.	.	8g/J	.	8ee\J	.	.	.	.	.	8g\	-i	8ee\	-i	.	.
=138	=138	=138	=138	=138	=138	=138	=138	=138	=138	=138	=138	=138	=138	=138	=138	=138
!LO:TX:t=P:problem= mixed beam	!	!	!	!	!	!	!	!	!	!	!	!	!	!	!	!
8A\L	4	.	4f#/	.	4dd\	.	.	.	.	.	4f#\	San-	4dd\	San-	.	.
8A\	.	.	.	.	.	.	.	.	.	.	.	.	.	.	.	.
8AA/	3	.	4e/	.	4cc#\	.	.	.	.	.	4e\	.	4cc#\	.	.	.
8AA/J	.	.	.	.	.	.	.	.	.	.	.	.	.	.	.	.
!	!	!	!	!	!	!	!	!	!	!	!	!	!LO:LB:g=original	!	!	!
=139	=139	=139	=139	=139	=139	=139	=139	=139	=139	=139	=139	=139	=139	=139	=139	=139
!LO:TX:a:t=tutti	!	!	!	!	!	!	!	!	!	!	!	!	!	!	!	!
4D\	.	.	8f#/L	.	16dd'\LL	.	2r	.	2r	.	4f#\	-cto	4dd\	-cto	2r	2r
.	.	.	.	.	16a'\	.	.	.	.	.	.	.	.	.	.	.
.	.	.	16g/L	.	16b'\	.	.	.	.	.	.	.	.	.	.	.
.	.	.	16a/JJ	.	16cc#'\JJ	.	.	.	.	.	.	.	.	.	.	.
4r	.	.	16b\LL	.	16dd'\LL	.	.	.	.	.	4r	.	4r	.	.	.
.	.	.	16cc#\	.	16ee'\	.	.	.	.	.	.	.	.	.	.	.
.	.	.	16dd\	.	16ff#'\	.	.	.	.	.	.	.	.	.	.	.
.	.	.	16ee\JJ	.	16gg'\JJ	.	.	.	.	.	.	.	.	.	.	.
!	!	!	!	!	!LO:LB:g=original	!	!	!	!LO:LB:g=original	!	!	!	!	!	!LO:LB:g=original	!LO:LB:g=original
=140	=140	=140	=140	=140	=140	=140	=140	=140	=140	=140	=140	=140	=140	=140	=140	=140
*	*	*	*^	*	*	*	*	*	*	*	*	*	*	*	*	*
!	!	!	!	!	!LO:DY:a	!	!LO:DY:a:t=f&colon;	!	!	!	!	!	!	!	!	!	!
*	*	*	*	*Xtremolo	*	*	*	*	*	*	*	*	*	*	*	*	*
8D\L	.	.	16a/LL	16f#\LL	f	8.aa\L	f	4D\	Si-	4A\	Si-	4f#\	Si-	4dd\	Si-	2f#/	2dd\
.	.	.	16a/	16f#\	.	.	.	.	.	.	.	.	.	.	.	.	.
8D\	.	.	16a/	16f#\	.	.	.	.	.	.	.	.	.	.	.	.	.
.	.	.	16a/JJ	16f#\JJ	.	32ff#\LL	.	.	.	.	.	.	.	.	.	.	.
.	.	.	.	.	.	32gg\JJJ	.	.	.	.	.	.	.	.	.	.	.
*	*	*	*tremolo	*tremolo	*	*	*	*	*	*	*	*	*	*	*	*	*
8D\	.	.	16a/LL	16f#\LL	.	8aa\L	.	4D\	-cut	4A\	-cut	4f#\	-cut	4dd\	-cut	.	.
.	.	.	16a/	16f#\	.	.	.	.	.	.	.	.	.	.	.	.	.
8D\J	.	.	16a/	16f#\	.	8aa\J	.	.	.	.	.	.	.	.	.	.	.
.	.	.	16a/JJ	16f#\JJ	.	.	.	.	.	.	.	.	.	.	.	.	.
=141	=141	=141	=141	=141	=141	=141	=141	=141	=141	=141	=141	=141	=141	=141	=141	=141	=141
*tremolo	*	*	*	*	*	*	*	*	*	*	*	*	*	*	*	*	*
8D\L	.	.	16a/LL	16f#\LL	.	8.aa\L	.	4D\	e-	4A\	e-	4f#\	e-	4dd\	e-	2f#/	2dd\
.	.	.	16a/	16f#\	.	.	.	.	.	.	.	.	.	.	.	.	.
8D\	.	.	16a/	16f#\	.	.	.	.	.	.	.	.	.	.	.	.	.
.	.	.	16a/JJ	16f#\JJ	.	16ff#\Jk	.	.	.	.	.	.	.	.	.	.	.
8D\	.	.	16a/LL	16f#\LL	.	16bb\LL	.	4D\	-rat	4A\	-rat	4f#\	-rat	4dd\	-rat	.	.
.	.	.	16a/	16f#\	.	16aa\	.	.	.	.	.	.	.	.	.	.	.
8D\J	.	.	16a/	16f#\	.	16gg\	.	.	.	.	.	.	.	.	.	.	.
.	.	.	16a/JJ	16f#\JJ	.	16ff#\JJ	.	.	.	.	.	.	.	.	.	.	.
*	*	*	*v	*v	*	*	*	*	*	*	*	*	*	*	*	*	*
!	!	!	!	!	!	!	!	!	!	!	!LO:LB:g=original	!	!	!	!	!
=142	=142	=142	=142	=142	=142	=142	=142	=142	=142	=142	=142	=142	=142	=142	=142	=142
8AA/L	.	.	16cc#/ 16e/LL	.	8.gg\L	.	4A\	in	4A\	in	4e\	in	4cc#\	in-	2a/	2ee\
.	.	.	16cc#/ 16e/	.	.	.	.	.	.	.	.	.	.	.	.	.
8AA/	.	.	16cc#/ 16e/	.	.	.	.	.	.	.	.	.	.	.	.	.
.	.	.	16cc#/ 16e/JJ	.	32ee\LL	.	.	.	.	.	.	.	.	.	.	.
.	.	.	.	.	32ff#\JJJ	.	.	.	.	.	.	.	.	.	.	.
8AA/	.	.	16cc#/ 16e/LL	.	8gg\L	.	4A\	prin-	4A\	prin-	4e\	prin-	4cc#\	-prin-	.	.
.	.	.	16cc#/ 16e/	.	.	.	.	.	.	.	.	.	.	.	.	.
8AA/J	.	.	16cc#/ 16e/	.	8gg\J	.	.	.	.	.	.	.	.	.	.	.
.	.	.	16cc#/ 16e/JJ	.	.	.	.	.	.	.	.	.	.	.	.	.
*	*	*	*Xtremolo	*	*	*	*	*	*	*	*	*	*	*	*	*
!	!	!	!LO:LB:g=original	!	!	!	!	!	!	!	!	!	!	!	!	!
=143	=143	=143	=143	=143	=143	=143	=143	=143	=143	=143	=143	=143	=143	=143	=143	=143
8AA/L	.	.	16cc#/LL 16e/	.	8.gg\L	.	4A\	-ci-	8.A\	-ci-	4e\	-ci-	4cc#\	-ci-	2a/	2ee\
.	.	.	16cc#/ 16e/	.	.	.	.	.	.	.	.	.	.	.	.	.
8AA/	.	.	16cc#/ 16e/	.	.	.	.	.	.	.	.	.	.	.	.	.
.	.	.	16cc#/JJ 16e/	.	16ee\Jk	.	.	.	16A\	-pi-	.	.	.	.	.	.
*	*	*	*tremolo	*	*	*	*	*	*	*	*	*	*	*	*	*
8AA/	.	.	16cc#/ 16e/LL	.	16aa\LL	.	4A\	-pi-	8A\	-o	4e\	-pi-	4cc#\	-pi-	.	.
.	.	.	16cc#/ 16e/	.	16gg\	.	.	.	.	.	.	.	.	.	.	.
8AA/J	.	.	16cc#/ 16e/	.	16ff#\	.	.	.	8A\	&	.	.	.	.	.	.
.	.	.	16cc#/ 16e/JJ	.	16ee\JJ	.	.	.	.	.	.	.	.	.	.	.
*Xtremolo	*	*	*Xtremolo	*	*	*	*	*	*	*	*	*	*	*	*	*
!LO:LB:g=original	!	!	!	!	!	!	!	!	!	!	!	!	!	!	!	!
=144	=144	=144	=144	=144	=144	=144	=144	=144	=144	=144	=144	=144	=144	=144	=144	=144
8D\L	.	.	8a/L	.	16ee\LL	.	4D\	-o	4A\	nunc	4f#\	-o	4dd\	-o	2dd\	2ff#\
.	.	.	.	.	16ff#\J	.	.	.	.	.	.	.	.	.	.	.
8D\	.	.	8a/	.	8ff#\J	.	.	.	.	.	.	.	.	.	.	.
8F#\	6	.	8a/	.	16r	.	4F#\	&	4A\	&	4f#\	&	4dd\	&	.	.
.	.	.	.	.	16aa\LL	.	.	.	.	.	.	.	.	.	.	.
8F#\J	_	.	8a/J	.	16ff#\	.	.	.	.	.	.	.	.	.	.	.
.	x	.	.	.	16dd\JJ	.	.	.	.	.	.	.	.	.	.	.
!	!	!	!	!	!	!	!LO:LB:g=original	!	!	!	!	!	!	!	!	!
=145	=145	=145	=145	=145	=145	=145	=145	=145	=145	=145	=145	=145	=145	=145	=145	=145
8G\L	6	.	8b/L	.	(16dd#X\LL	.	4G\	nunc	4B\	sem-	4g\	nunc	4ee\	nunc	4ee\	4gg\
.	.	.	.	.	16ee\J)	.	.	.	.	.	.	.	.	.	.	.
8G\	.	.	8b/	.	8ee'\J	.	.	.	.	.	.	.	.	.	.	.
!	!	!	!	!	!LO:LB:g=original	!	!	!	!	!	!	!	!	!	!	!
8A\	.	.	8e/	.	16r	.	4A\	&	8A\	-per	4e\	&	4cc#\	&	4a/	4ee\
.	.	.	.	.	16gg\LL	.	.	.	.	.	.	.	.	.	.	.
8A\J	.	.	8e/J	.	16ee\	.	.	.	8A\	&	.	.	.	.	.	.
.	.	.	.	.	16cc#\JJ	.	.	.	.	.	.	.	.	.	.	.
!	!	!	!	!	!	!	!	!	!LO:LB:g=original	!	!	!	!	!	!	!
=146	=146	=146	=146	=146	=146	=146	=146	=146	=146	=146	=146	=146	=146	=146	=146	=146
8B\L	.	.	8f#/L	.	16cc#\LL	.	4B\	nunc	4B\	nunc	4f#\	nunc	4dd\	nunc	4dd\	4ff#\
.	.	.	.	.	16dd\J	.	.	.	.	.	.	.	.	.	.	.
8B\	.	.	8f#/	.	8.dd\J	.	.	.	.	.	.	.	.	.	.	.
8G#X\	6 5	.	8b/	.	.	.	4G#X\	&	4B\	&	4e\	E	4dd\	&	4ee\	4ee\
.	.	.	.	.	16b\LL	.	.	.	.	.	.	.	.	.	.	.
8G#\J	.	.	8b/J	.	16ee\	.	.	.	.	.	.	.	.	.	.	.
.	.	.	.	.	16dd\JJ	.	.	.	.	.	.	.	.	.	.	.
=147	=147	=147	=147	=147	=147	=147	=147	=147	=147	=147	=147	=147	=147	=147	=147	=147
!LO:TX:t=P:problem= mixed beam	!	!	!	!	!	!	!	!	!	!	!	!	!	!	!	!
8A\L	4	.	8.f#/L	.	8.dd\L	.	4A\	Sem-	4A\	Sem-	4f#\	Sem-	4dd\	Sem-	4dd\	4ff#\
8A\	.	.	.	.	.	.	.	.	.	.	.	.	.	.	.	.
.	.	.	32e/LL	.	32cc#\LL	.	.	.	.	.	.	.	.	.	.	.
.	.	.	32f#/JJJ	.	32dd\JJJ	.	.	.	.	.	.	.	.	.	.	.
8AA/J	3	.	8e/L	.	16cc#\LL	.	8AA/	-per	8A\	-per	8e\	-per	8cc#\	-per	8a/	8ee\
.	.	.	.	.	16a\	.	.	.	.	.	.	.	.	.	.	.
8r	.	.	8e/J	.	16cc#\	.	8r	.	8r	.	8r	.	8r	.	8r	8r
.	.	.	.	.	16ee\JJ	.	.	.	.	.	.	.	.	.	.	.
!	!	!	!	!	!	!	!	!	!	!	!	!	!LO:PB:g=original	!	!	!
=148	=148	=148	=148	=148	=148	=148	=148	=148	=148	=148	=148	=148	=148	=148	=148	=148
8r	.	.	8e/	.	16aa\LL	.	8r	.	8r	.	8r	.	8r	.	8r	8r
.	.	.	.	.	16cc#\JJ	.	.	.	.	.	.	.	.	.	.	.
!LO:TX:t=P:problem= mixed beam	!	!	!	!	!	!	!	!	!	!	!	!	!	!	!	!
8AA/L	3	.	4e/	.	4cc#\	.	4A\	&	4A\	&	4e\	&	4cc#\	&	8a/L	8ee\L
8A\	_	.	.	.	.	.	.	.	.	.	.	.	.	.	8a/	8ee\
8G\J	.	.	16d/LL	.	16b\LL	.	8G\	in	8A\	in	8e\	in	8cc#\	in	8a/J	8ee\J
.	x	.	16e/JJ	.	16cc#\JJ	.	.	.	.	.	.	.	.	.	.	.
!	!	!	!LO:LB:g=original	!	!	!	!	!	!	!	!LO:LB:g=original	!	!	!	!LO:LB:g=original	!LO:LB:g=original
=149	=149	=149	=149	=149	=149	=149	=149	=149	=149	=149	=149	=149	=149	=149	=149	=149
8F#\L	6	.	8a/L	.	8dd\L	.	8F#\	Sae-	8A\	Sae-	8f#\	Sae-	8dd\	Sae-	8dd\L	8ff#\L
.	.	.	.	.	8qee/	.	.	.	.	.	.	.	.	.	.	.
8E\	6	.	8g/J	.	16dd\L	.	8E\	-cu-	8A\	-cu-	8g\	-cu-	8cc#\	-cu-	8ee\	8gg\
.	.	.	.	.	16cc#\JJ	.	.	.	.	.	.	.	.	.	.	.
8D\J	.	.	16f#/LL	.	16dd\LL	.	8D\	-la	8A\	-la	8f#\	-la	8dd\	-la	8dd\J	8ff#\J
.	.	.	16a/	.	16ff#\	.	.	.	.	.	.	.	.	.	.	.
8r	.	.	16g/	.	16ee\	.	8r	.	8r	.	8r	.	8r	.	8r	8r
.	.	.	16f#/JJ	.	16dd\JJ	.	.	.	.	.	.	.	.	.	.	.
!	!	!	!	!	!	!	!LO:LB:g=original	!	!LO:PB:g=original	!	!	!	!	!	!	!
=150	=150	=150	=150	=150	=150	=150	=150	=150	=150	=150	=150	=150	=150	=150	=150	=150
.	.	.	.	.	8qdd/	.	.	.	.	.	.	.	.	.	.	.
8r	.	.	8e/	.	8cc#\	.	8r	.	8r	.	8r	.	8r	.	8r	8r
*	*	*	*	*	*	*	*	*	*	*	*	*	*	*ij	*	*
!LO:TX:t=P:problem= mixed beam	!	!	!	!	!	!	!	!	!	!	!	!	!	!	!	!
8AA/L	3	.	4e/	.	4cc#\	.	4A\	&	4A\	&	4e\	&	4cc#\	&	8a/L	8ee\L
8A\	_	.	.	.	.	.	.	.	.	.	.	.	.	.	8a/	8ee\
8G\J	.	.	16d/LL	.	16b\LL	.	8G\	in	8A\	in	8e\	in	8cc#\	in	8a/J	8ee\J
.	x	.	16e/JJ	.	16cc#\JJ	.	.	.	.	.	.	.	.	.	.	.
!LO:LB:g=original	!	!	!	!	!LO:LB:g=original	!	!	!	!	!	!	!	!	!	!	!
=151	=151	=151	=151	=151	=151	=151	=151	=151	=151	=151	=151	=151	=151	=151	=151	=151
8F#\L	6	.	8a/L	.	8dd\L	.	8F#\	Sae-	8A\	Sae-	8f#\	Sae-	8dd\	Sae-	8dd\L	8ff#\L
8E\	6	.	8g/	.	16dd\L	.	8E\	-cu-	8A\	-cu-	8g\	-cu-	8cc#\	-cu-	8ee\	8gg\
.	.	.	.	.	16cc#\JJ	.	.	.	.	.	.	.	.	.	.	.
8D\	.	.	8f#/	.	16dd\LL	.	8D\L	-la	4A\	-la	4f#\	-la	4dd\	-la	8dd\J	8ff#\J
*	*	*	*	*	*	*	*	*	*	*	*	*	*	*Xij	*	*
.	.	.	.	.	16ff#\	.	.	.	.	.	.	.	.	.	.	.
8F#\J	6	.	8a/J	.	16ee\	.	8F#\J	.	.	.	.	.	.	.	8r	8r
.	.	.	.	.	16dd\JJ	.	.	.	.	.	.	.	.	.	.	.
=152	=152	=152	=152	=152	=152	=152	=152	=152	=152	=152	=152	=152	=152	=152	=152	=152
8G\L	6	.	8b/L	.	16dd#X\LL	.	4G\	Sae-	4B\	Sae-	4g\	Sae-	4ee\	Sae-	4ee\	4gg\
.	_	.	.	.	16ee\J	.	.	.	.	.	.	.	.	.	.	.
8G\	.	.	8b/	.	8ee\J	.	.	.	.	.	.	.	.	.	.	.
8A\	x	.	8e/	.	16r	.	4G\	-cu-	4A\	-cu-	4e\	-cu-	4cc#\	-cu-	4a/	4ee\
.	.	.	.	.	16gg\LL	.	.	.	.	.	.	.	.	.	.	.
8A\J	.	.	8e/J	.	16ee\	.	.	.	.	.	.	.	.	.	.	.
.	.	.	.	.	16cc#\JJ	.	.	.	.	.	.	.	.	.	.	.
=153	=153	=153	=153	=153	=153	=153	=153	=153	=153	=153	=153	=153	=153	=153	=153	=153
8B\L	.	.	8f#/L	.	16cc#\LL	.	4B\	-lo-	4B\	-lo-	4f#\	-lo-	4dd\	-lo-	4dd\	4ff#\
.	.	.	.	.	16dd\J	.	.	.	.	.	.	.	.	.	.	.
8B\	.	.	8f#/	.	8dd\J	.	.	.	.	.	.	.	.	.	.	.
8F#\	6	.	8a/	.	16r	.	4F#\	-rum	4A\	-rum	4f#\	-rum	4dd\	-rum	4dd\	4ff#\
.	.	.	.	.	16aa\LL	.	.	.	.	.	.	.	.	.	.	.
8F#\J	3	.	8a/J	.	16ff#\	.	.	.	.	.	.	.	.	.	.	.
.	.	.	.	.	16dd\JJ	.	.	.	.	.	.	.	.	.	.	.
=154	=154	=154	=154	=154	=154	=154	=154	=154	=154	=154	=154	=154	=154	=154	=154	=154
!LO:TX:t=P:problem= mixed beam	!	!	!	!	!	!	!	!	!	!	!	!	!	!	!	!
8G\L	6	.	8b/L	.	16dd#X\LL	.	4G\	a-	(4B\	a-	4g\	a-	4ee\	a-	4ee\	4gg\
.	.	.	.	.	16ee\	.	.	.	.	.	.	.	.	.	.	.
8G\	_	.	16b/L	.	16gg\	.	.	.	.	.	.	.	.	.	.	.
.	.	.	16g/JJ	.	16ee\JJ	.	.	.	.	.	.	.	.	.	.	.
!	!	!	!	!	!	!	!LO:TX:t=P:problem= mixed beam	!	!	!	!	!	!	!	!	!
8A\	4	.	16g/LL	.	16ee\LL	.	8A\L	.	4A\)	.	8f#\L	.	8dd\L	.	8dd\L	8ff#\L
.	.	.	16f#/	.	16ddn\	.	.	.	.	.	.	.	.	.	.	.
8AA/J	.	.	16f#/	.	16dd\	.	8AA/J	.	.	.	8e\J	.	8cc#\J	.	8a\J	8ee\J
.	.	.	16e/JJ	.	16cc#\JJ	.	.	.	.	.	.	.	.	.	.	.
!	!	!	!LO:LB:g=original	!	!	!	!	!	!	!	!LO:LB:g=original	!	!LO:LB:g=original	!	!	!
=155	=155	=155	=155	=155	=155	=155	=155	=155	=155	=155	=155	=155	=155	=155	=155	=155
4D\	.	.	8f#/L	.	8dd\L	.	4D\	-men	4A\	-men	4f#\	-men	4dd\	-men	4f#/	4dd\
!	!	!	!	!	!LO:LO:TUP:a:t=klamra łukowa	!	!	!	!	!	!	!	!	!	!	!
.	.	.	8d/J	.	24ee\L	.	.	.	.	.	.	.	.	.	.	.
.	.	.	.	.	24gg\	.	.	.	.	.	.	.	.	.	.	.
.	.	.	.	.	24ff#\JJ	.	.	.	.	.	.	.	.	.	.	.
!	!	!	!	!	!LO:LB:g=original	!	!	!	!	!	!	!	!	!	!	!
4r	.	.	4c#/	.	16ee\LL	.	4r	.	4r	.	4r	.	4r	.	4r	4r
.	.	.	.	.	16ff#\	.	.	.	.	.	.	.	.	.	.	.
.	.	.	.	.	16gg\	.	.	.	.	.	.	.	.	.	.	.
.	.	.	.	.	16aa\JJ	.	.	.	.	.	.	.	.	.	.	.
!	!	!	!	!	!	!	!LO:LB:g=original	!	!LO:LB:g=original	!	!	!	!	!	!LO:LB:g=original	!LO:LB:g=original
=156	=156	=156	=156	=156	=156	=156	=156	=156	=156	=156	=156	=156	=156	=156	=156	=156
8r	.	.	8d/L	.	8ff#\	.	8r	.	8r	.	8r	.	8r	.	8r	8r
8B\L	.	.	8f#/J	.	4dd\	.	8B\L	a-	(4B\	a-	(8f#\	a-	4dd\	a-	8dd\L	8ff#\
8G\	6 5	.	4e/	.	.	.	8G\	.	.	.	4e\)	.	.	.	8dd\	4ee\
8A\J	.	.	.	.	8cc#\	.	8A\J	.	8A\)	.	.	.	8cc#\	.	8a\J	.
=157	=157	=157	=157	=157	=157	=157	=157	=157	=157	=157	=157	=157	=157	=157	=157	=157
4D\	.	.	8f#/L	.	8dd\L	.	4D\	-men	4A\	-men	4f#\	-men	4dd\	-men	4f#/	4dd\
!	!	!	!	!	!LO:LO:TUP:a:t=klamra łukowa	!	!	!	!	!	!	!	!	!	!	!
.	.	.	8d/J	.	24ff#\L	.	.	.	.	.	.	.	.	.	.	.
.	.	.	.	.	24gg\	.	.	.	.	.	.	.	.	.	.	.
.	.	.	.	.	24ff#\JJ	.	.	.	.	.	.	.	.	.	.	.
4r	.	.	4c#/	.	16ee\LL	.	4r	.	4r	.	4r	.	4r	.	4r	4r
.	.	.	.	.	16ff#\	.	.	.	.	.	.	.	.	.	.	.
.	.	.	.	.	16gg\	.	.	.	.	.	.	.	.	.	.	.
.	.	.	.	.	16aa\JJ	.	.	.	.	.	.	.	.	.	.	.
!LO:LB:g=original	!	!	!	!	!	!	!	!	!	!	!	!	!	!	!	!
=158	=158	=158	=158	=158	=158	=158	=158	=158	=158	=158	=158	=158	=158	=158	=158	=158
8r	.	.	8d/L	.	8ff#\	.	8r	.	8r	.	8r	.	8r	.	8r	8r
*	*	*	*	*	*	*	*	*ij	*	*ij	*	*ij	*	*ij	*	*
8B\L	.	.	8f#/J	.	4dd\	.	8B\L	a-	(4B\	a-	(8f#\	a-	(4dd\	a-	8dd\L	8ff#\
8G\	6 5	.	4e/	.	.	.	8G\	.	.	.	4e\)	.	.	.	8dd\	4ee\
8A\J	.	.	.	.	8cc#\	.	8A\J	.	8A\)	.	.	.	8cc#\)	.	8a\J	.
=159	=159	=159	=159	=159	=159	=159	=159	=159	=159	=159	=159	=159	=159	=159	=159	=159
4D\	.	.	4f#/	.	4dd\	.	4D\	-men	4A\	-men	4f#\	-men	4dd\	-men	4f#/	4dd\
4AA/	.	.	4cc#\ 4e\	.	4ee\ 4a\	.	4A\	a-	4c#\	a-	4a\	a-	4ee\	a-	4a/	4ee\
=160	=160	=160	=160	=160	=160	=160	=160	=160	=160	=160	=160	=160	=160	=160	=160	=160
4DD/	.	.	4dd\ 4f#\	.	4ff#\ 4a\ 4d\	.	4D\	-men	4d\	-men	4a\	-men	4ff#\	-men	4f#/	4dd\
*	*	*	*	*	*	*	*	*Xij	*	*Xij	*	*Xij	*	*Xij	*	*
!	!	!	!LO:TX:b:t=Verte Magnificat	!	!	!	!	!	!	!	!	!	!	!	!	!
4r	.	.	4r	.	4r	.	4r	.	4r	.	4r	.	4r	.	4r	4r
==	==	==	==	==	==	==	==	==	==	==	==	==	==	==	==	==
*-	*-	*-	*-	*-	*-	*-	*-	*-	*-	*-	*-	*-	*-	*-	*-	*-
!!!system-decoration: [(s1,s2)][(s3,s4,s5,s6)][(s7,s8)]s9
!!!RDF**dynam: p = pio:
!!!RDF**dynam: f = for:
!!!RDF**kern: > = above
!!!RDF**kern: < = below
!!!ENC: Berenika Jozajtis
!!!END: 2020-07-15
!!!ENC: Leszek Kubiak
!!!END: 2022-01-12
